; generated by PrusaSlicer 2.5.0+MacOS-arm64 on 2023-01-04 at 06:08:39 UTC

; 

; external perimeters extrusion width = 0.63mm
; perimeters extrusion width = 0.66mm
; infill extrusion width = 0.66mm
; solid infill extrusion width = 0.66mm
; top infill extrusion width = 0.60mm
; first layer extrusion width = 0.63mm

M201 X500 Y500 Z100 E1000 ; sets maximum accelerations, mm/sec^2
M203 X300 Y300 Z5 E60 ; sets maximum feedrates, mm / sec
M204 P500 R1000 T500 ; sets acceleration (P, T) and retract acceleration (R), mm/sec^2
M205 X8.00 Y8.00 Z0.40 E5.00 ; sets the jerk limits, mm/sec
M205 S0 T0 ; sets the minimum extruding and travel feed rate, mm/sec
M107
;TYPE:Custom
G90 ; use absolute coordinates
M83 ; extruder relative mode
M104 S150 ; set temporary nozzle temp to prevent oozing during homing and auto bed leveling
M140 S60 ; set final bed temp
M190 S60 ; wait for bed temp to stabilize
G28 ; home all axis
G1 Z50 F240
G1 X2.0 Y10 F3000
M104 S210 ; set final nozzle temp
M109 S210 ; wait for nozzle temp to stabilize
G1 Z0.28 F240
G92 E0
G1 X2.0 Y140 E10 F1500 ; prime the nozzle
G1 X2.3 Y140 F5000
G92 E0
G1 X2.3 Y10 E10 F1200 ; prime the nozzle
G92 E0
G21 ; set units to millimeters
G90 ; use absolute coordinates
M83 ; use relative distances for extrusion
; Filament gcode
M107
;LAYER_CHANGE
;Z:0.3
;HEIGHT:0.3
;BEFORE_LAYER_CHANGE
G92 E0
;0.3


G1 E-3 F2400
G1 Z.3 F9000
;AFTER_LAYER_CHANGE
;0.3
G1 X152.574 Y170.651
G1 E3 F2400
;TYPE:Skirt/Brim
;WIDTH:0.63
G1 F1200
G1 X153.19 Y170.261 E.0514
G1 X153.877 Y169.953 E.0531
G1 X155.291 Y169.642 E.10216
G1 X180.097 Y168.119 E1.75327
G1 X182.416 Y168.269 E.16398
G1 X184.945 Y168.767 E.18185
G1 X187.286 Y169.562 E.17438
G1 X189.541 Y170.68 E.17757
G1 X191.611 Y172.073 E.17605
G1 X193.5 Y173.749 E.17813
G1 X195.172 Y175.695 E.18099
G1 X196.477 Y177.699 E.16875
G1 X196.916 Y178.853 E.0871
G1 X197.054 Y180.023 E.0831
G1 X196.877 Y181.297 E.09072
G1 X196.462 Y182.33 E.07856
G1 X195.321 Y184.103 E.14872
G1 X194.04 Y185.679 E.14329
G1 X192.636 Y187.074 E.13963
G1 X190.904 Y188.448 E.15597
G1 X189.612 Y189.278 E.10832
G1 X188.32 Y189.971 E.10344
G1 X186.967 Y190.566 E.10428
G1 X185.643 Y191.031 E.09903
G1 X184.192 Y191.419 E.10592
G1 X182.77 Y191.682 E.10204
G1 X181.343 Y191.836 E.10129
G1 X179.915 Y191.881 E.10076
G1 X154.937 Y190.317 E1.76558
G1 X153.881 Y190.048 E.0769
G1 X152.866 Y189.548 E.07982
G1 X152.158 Y189.009 E.06277
G1 X151.421 Y188.182 E.07815
G1 X151.019 Y187.521 E.05458
G1 X150.731 Y186.85 E.05148
G1 X150.439 Y185.466 E.0998
G1 X150.439 Y174.534 E.77126
G1 X150.662 Y173.361 E.08418
G1 X151.081 Y172.361 E.07651
G1 X151.718 Y171.442 E.07888
G1 X152.508 Y170.712 E.07592
; printing object _3DBenchy.stl id:0 copy 0
G1 E-2.1 F2400
;WIPE_START
G1 F7200
G1 X153.19 Y170.261 E-.25882
G1 X153.877 Y169.953 E-.23834
G1 X154.98 Y169.71 E-.35784
;WIPE_END
G1 E-.045 F2400
G1 X159.72 Y176.778 F9000
G1 E3 F2400
;TYPE:Perimeter
;WIDTH:0.63
G1 F1200
G1 X159.413 Y176.552 E.02687
G1 X158.856 Y176.219 E.04578
G1 X158.381 Y176.076 E.03498
G1 X157.531 Y175.995 E.06021
G1 X156.83 Y176.073 E.04979
G1 X156.144 Y176.301 E.05099
G1 X155.493 Y176.704 E.054
G1 X154.987 Y177.219 E.05091
G1 X154.988 Y175.205 E.14209
G1 X155.074 Y174.703 E.0359
G1 X155.253 Y174.448 E.022
G1 X155.525 Y174.284 E.02241
G1 X155.848 Y174.199 E.02356
G1 X179.201 Y172.771 E1.65051
G1 X180.057 Y172.747 E.06041
G1 X181.082 Y172.783 E.07236
G1 X181.847 Y172.86 E.05429
G1 X182.629 Y172.984 E.05583
G1 X183.674 Y173.221 E.0756
G1 X184.44 Y173.448 E.05635
G1 X185.451 Y173.822 E.07605
G1 X186.268 Y174.193 E.0633
G1 X187.141 Y174.662 E.06991
G1 X187.829 Y175.089 E.05711
G1 X188.327 Y175.447 E.04331
G1 X188.736 Y175.745 E.03564
G1 X189.483 Y176.373 E.06893
G1 X190.118 Y176.983 E.06204
;WIDTH:0.638533
G1 X190.567 Y177.478 E.04788
;WIDTH:0.663819
G1 X190.722 Y177.68 E.019
;WIDTH:0.689104
G1 X190.876 Y177.881 E.01981
G1 X190.602 Y177.722 E.0247
;WIDTH:0.656512
G1 X190.029 Y177.604 E.0432
;WIDTH:0.63
G1 X187.914 Y177.6 E.14921
G1 X187.4 Y177.664 E.03657
G1 X187.007 Y177.81 E.02958
G1 X186.768 Y177.985 E.02086
G1 X186.503 Y177.783 E.02352
G1 X186.066 Y177.618 E.03294
G1 X185.774 Y177.618 E.02061
G1 X185.456 Y177.701 E.0232
G1 X185.147 Y177.859 E.0245
G1 X184.765 Y178.295 E.04088
G1 X184.552 Y178.685 E.03134
G1 X184.283 Y178.18 E.04041
G1 X184.026 Y177.911 E.02626
G1 X183.623 Y177.705 E.03187
G1 X183.322 Y177.621 E.02208
G1 X182.855 Y177.629 E.03297
G1 X182.448 Y177.766 E.0303
G1 X182.155 Y178.032 E.02786
G1 X182.077 Y177.945 E.00823
G1 X181.66 Y177.682 E.03478
G1 X181.236 Y177.608 E.0304
G1 X180.917 Y177.642 E.02265
G1 X180.524 Y177.818 E.03037
G1 X180.177 Y178.142 E.03347
G1 X180.083 Y178.024 E.01066
G1 X179.858 Y177.826 E.02109
G1 X179.529 Y177.674 E.02562
G1 X179.22 Y177.603 E.02236
G1 X178.697 Y177.687 E.03736
G1 X178.428 Y177.793 E.02037
G1 X178.077 Y178.086 E.03229
G1 X177.932 Y178.314 E.01908
G1 X177.795 Y178.734 E.0312
G1 X177.812 Y179.152 E.02951
G1 X177.934 Y179.513 E.02682
G1 X178.214 Y180.084 E.04491
G1 X178.603 Y180.76 E.05499
G1 X178.282 Y181.274 E.04277
G1 X178.031 Y180.971 E.02776
G1 X177.594 Y180.682 E.03691
G1 X177.326 Y180.574 E.0204
G1 X176.83 Y180.496 E.0354
G1 X176.498 Y180.511 E.02346
G1 X176.472 Y179.358 E.08131
G1 X176.38 Y178.779 E.04141
G1 X176.27 Y178.42 E.02646
G1 X176.068 Y177.888 E.04016
G1 X175.747 Y177.366 E.04321
G1 X175.383 Y176.965 E.03822
G1 X174.913 Y176.615 E.04135
G1 X174.411 Y176.389 E.03886
G1 X173.865 Y176.253 E.0397
G1 X173.342 Y176.19 E.03713
G1 X171.754 Y176.154 E.11204
G1 X171.276 Y176.204 E.03397
G1 X170.847 Y176.369 E.0324
G1 X170.523 Y176.638 E.02967
G1 X170.298 Y177.018 E.03121
G1 X170.25 Y177.218 E.01448
;WIDTH:0.617294
G1 X170.239 Y177.499 E.01942
G1 X170.141 Y177.23 E.01976
;WIDTH:0.63
G1 X169.775 Y176.721 E.0442
G1 X169.55 Y176.515 E.02156
G1 X168.947 Y176.183 E.04856
G1 X168.278 Y176.025 E.04847
G1 X167.44 Y176.006 E.05918
G1 X166.635 Y176.171 E.05791
G1 X166.105 Y176.418 E.04133
G1 X165.781 Y176.695 E.03001
G1 X165.51 Y176.397 E.02841
G1 X165.269 Y176.277 E.01906
G1 X164.776 Y176.164 E.03562
G1 X161.505 Y176.175 E.23076
G1 X160.9 Y176.135 E.0428
G1 X160.646 Y176.156 E.01795
G1 X160.186 Y176.315 E.03434
G1 X159.956 Y176.487 E.02029
G1 X159.776 Y176.708 E.02007
G1 E-2.1 F2400
;WIPE_START
G1 F7200
G1 X159.413 Y176.552 E-.12528
G1 X158.856 Y176.219 E-.20549
G1 X158.381 Y176.076 E-.15702
G1 X157.531 Y175.995 E-.27029
G1 X157.227 Y176.029 E-.09692
;WIPE_END
G1 E-.045 F2400
G1 X190.178 Y181.247 F9000
G1 E3 F2400
G1 F1200
G1 X190.86 Y180.282 E.0834
G1 X191.18 Y179.726 E.04524
G1 X191.279 Y179.459 E.02012
G1 X191.336 Y179.024 E.03094
;WIDTH:0.64595
G1 X191.26 Y178.517 E.03723
;WIDTH:0.674148
G1 X191.115 Y178.165 E.02893
G1 X191.36 Y178.459 E.02915
;WIDTH:0.64595
G1 X191.797 Y179.063 E.05405
;WIDTH:0.63
G1 X192.247 Y179.805 E.06119
G1 X192.29 Y180.031 E.01629
G1 X192.181 Y180.308 E.02096
G1 X191.828 Y180.88 E.04743
G1 X191.55 Y181.297 E.03534
G1 X191.171 Y181.81 E.04499
G1 X190.988 Y181.604 E.01941
G1 X190.665 Y181.387 E.02747
G1 X190.264 Y181.272 E.02939
G1 X190.784 Y183.061 F9000
;TYPE:External perimeter
;WIDTH:0.742403
G1 F1200
G1 X190.541 Y183.307 E.02919
G1 E-2.1 F2400
;WIPE_START
G1 F7200
G1 X190.784 Y183.061 E-.10932
;WIPE_END
G1 E-.79068 F2400
G1 X186.777 Y180.36 F9000
G1 E3 F2400
;TYPE:Perimeter
;WIDTH:0.625843
G1 F1200
G1 X186.905 Y180.041 E.02408
G1 X187.03 Y180.137 E.01101
G1 X187.501 Y180.295 E.03482
G1 X187.271 Y180.613 E.02745
;WIDTH:0.652234
G1 X187.103 Y180.821 E.01962
;WIDTH:0.678626
G1 X186.936 Y181.03 E.0205
;WIDTH:0.721861
G1 X186.864 Y181.096 E.00798
;WIDTH:0.765096
G1 X186.792 Y181.161 E.0085
;WIDTH:0.808332
G1 X186.721 Y181.227 E.00903
;WIDTH:0.851567
G1 X186.649 Y181.293 E.00955
;WIDTH:0.894803
G1 X186.577 Y181.358 E.01008
G1 X186.589 Y181.262 E.01007
;WIDTH:0.851567
G1 X186.6 Y181.165 E.00954
;WIDTH:0.808332
G1 X186.612 Y181.069 E.00902
;WIDTH:0.765096
G1 X186.623 Y180.972 E.0085
;WIDTH:0.721861
G1 X186.635 Y180.876 E.00797
;WIDTH:0.678626
G1 X186.706 Y180.618 E.0205
;WIDTH:0.652234
G1 X186.753 Y180.447 E.01302
G1 E-2.1 F2400
;WIPE_START
G1 F7200
G1 X186.905 Y180.041 E-.13725
G1 X187.03 Y180.137 E-.04978
G1 X187.501 Y180.295 E-.15745
G1 X187.271 Y180.613 E-.12414
G1 X187.103 Y180.821 E-.08473
G1 X186.936 Y181.03 E-.08473
G1 X186.864 Y181.096 E-.03081
G1 X186.792 Y181.161 E-.03081
G1 X186.721 Y181.227 E-.03081
G1 X186.649 Y181.293 E-.03081
G1 X186.577 Y181.358 E-.03081
G1 X186.589 Y181.262 E-.03078
G1 X186.6 Y181.165 E-.03078
G1 X186.601 Y181.161 E-.00133
;WIPE_END
G1 E-.045 F2400
G1 X181.722 Y180.666 F9000
G1 E3 F2400
;WIDTH:0.65113
G1 F1200
G1 X182.103 Y180.021 E.05486
G1 X182.318 Y180.598 E.04503
G1 X182.516 Y181.064 E.03708
;WIDTH:0.604229
G1 X182.715 Y181.53 E.03412
;WIDTH:0.557328
G1 X182.762 Y181.646 E.00773
;WIDTH:0.551991
G1 X182.962 Y182.176 E.03444
;WIDTH:0.588748
G1 X183.055 Y182.435 E.01797
;WIDTH:0.625505
G1 X183.148 Y182.693 E.01923
G1 X183.018 Y183.075 E.0282
;WIDTH:0.598397
G1 X182.927 Y183.326 E.01783
;WIDTH:0.576439
G1 X182.744 Y183.692 E.02613
;WIDTH:0.597679
G1 X182.597 Y183.793 E.01181
;WIDTH:0.639516
G1 X182.512 Y183.797 E.00611
;WIDTH:0.681352
G1 X182.427 Y183.801 E.00656
;WIDTH:0.723189
G1 X182.342 Y183.805 E.007
;WIDTH:0.765025
G1 X182.257 Y183.809 E.00745
;WIDTH:0.806862
G1 X182.172 Y183.813 E.00789
;WIDTH:0.848698
G1 X182.087 Y183.817 E.00834
G1 X182.126 Y183.763 E.0065
;WIDTH:0.814737
G1 X182.165 Y183.71 E.00622
;WIDTH:0.780776
G1 X182.205 Y183.656 E.00594
;WIDTH:0.746815
G1 X182.263 Y183.537 E.01132
;WIDTH:0.703216
G1 X182.321 Y183.417 E.0106
;WIDTH:0.659618
G1 X182.38 Y183.298 E.00988
;WIDTH:0.61602
G1 X182.438 Y183.178 E.00915
;WIDTH:0.616779
G1 X182.562 Y182.736 E.03161
G1 X182.52 Y182.486 E.01751
;WIDTH:0.579352
G1 X182.477 Y182.235 E.01632
;WIDTH:0.557328
G1 X182.272 Y181.743 E.0328
;WIDTH:0.604229
G1 X182.032 Y181.297 E.03412
;WIDTH:0.65113
G1 X181.733 Y180.754 E.04532
G1 E-2.1 F2400
;WIPE_START
G1 F7200
G1 X182.103 Y180.021 E-.26013
G1 X182.318 Y180.598 E-.19484
G1 X182.516 Y181.064 E-.16044
G1 X182.715 Y181.53 E-.16045
G1 X182.762 Y181.646 E-.0398
G1 X182.806 Y181.763 E-.03934
;WIPE_END
G1 E-.045 F2400
G1 X178.163 Y182.655 F9000
G1 E3 F2400
;TYPE:External perimeter
;WIDTH:0.895145
G1 F1200
G1 X178.211 Y182.373 E.02967
G1 E-2.1 F2400
;WIPE_START
G1 F7200
G1 X178.163 Y182.655 E-.09068
;WIPE_END
G1 E-.80932 F2400
G1 X175.464 Y181.987 F9000
G1 E3 F2400
;WIDTH:0.716927
G1 F1200
G1 X175.698 Y181.543 E.04084
G1 E-2.1 F2400
;WIPE_START
G1 F7200
G1 X175.464 Y181.987 E-.1589
;WIPE_END
G1 E-.7411 F2400
G1 X158.559 Y180.699 F9000
G1 E3 F2400
;TYPE:Perimeter
;WIDTH:0.63
G1 F1200
G1 X158.435 Y180.705 E.00873
G1 X158.052 Y180.882 E.02976
G1 X157.745 Y181.15 E.02876
G1 X157.576 Y181.174 E.01203
G1 X157.267 Y181.097 E.02249
G1 X157.113 Y180.937 E.01569
G1 X156.986 Y180.442 E.03606
G1 X156.964 Y180.096 E.02444
G1 X156.983 Y179.486 E.04303
G1 X157.113 Y178.995 E.03585
G1 X157.354 Y178.79 E.02234
G1 X157.582 Y178.77 E.01611
G1 X158.026 Y179.021 E.036
G1 X158.418 Y179.193 E.03024
G1 X158.933 Y179.278 E.03681
G1 X159.371 Y179.181 E.03162
G1 X159.668 Y178.995 E.02477
G1 X160.006 Y178.623 E.03539
G1 X160.059 Y178.672 E.00511
G1 X160.548 Y178.877 E.03741
G1 X160.913 Y178.919 E.02592
G1 X161.418 Y178.867 E.0358
G1 X161.402 Y179.155 E.02038
G1 X161.419 Y181.91 E.19433
G1 X161.388 Y182.414 E.03564
G1 X161.415 Y182.8 E.02729
G1 X161.592 Y183.235 E.03312
G1 X161.808 Y183.464 E.02218
G1 X162.272 Y183.716 E.0373
G1 X162.65 Y183.79 E.02716
G1 X163.043 Y183.753 E.02779
G1 X163.467 Y183.585 E.0322
G1 X163.803 Y183.282 E.03196
G1 X163.983 Y182.954 E.02637
G1 X164.123 Y182.345 E.04408
G1 X164.108 Y178.88 E.24446
G1 X164.626 Y178.872 E.03658
G1 X165.248 Y178.745 E.04474
G1 X165.601 Y178.518 E.02965
G1 X165.831 Y178.758 E.02345
G1 X166.199 Y179.002 E.03114
G1 X166.091 Y179.225 E.01749
G1 X166.022 Y179.67 E.03178
G1 X166.021 Y179.987 E.02238
G1 X166.114 Y180.281 E.02174
G1 X166.319 Y180.585 E.0259
G1 X166.45 Y180.682 E.01149
;WIDTH:0.604508
G1 X166.581 Y180.778 E.01097
;WIDTH:0.579016
G1 X166.846 Y180.864 E.01786
;WIDTH:0.570358
G1 X166.624 Y180.861 E.01404
;WIDTH:0.609108
G1 X166.401 Y180.857 E.01512
;WIDTH:0.63
G1 X166.117 Y180.924 E.02063
G1 X165.765 Y181.144 E.02922
G1 X165.47 Y181.538 E.03476
G1 X165.353 Y181.886 E.02591
G1 X165.326 Y182.289 E.0285
G1 X165.462 Y182.804 E.03754
G1 X165.729 Y183.223 E.03512
G1 X166.157 Y183.561 E.03844
G1 X166.433 Y183.702 E.02186
G1 X167.188 Y183.902 E.0551
G1 X167.808 Y183.934 E.04378
G1 X168.297 Y183.896 E.03462
G1 X168.808 Y183.767 E.03724
G1 X169.238 Y183.562 E.03354
G1 X169.543 Y183.359 E.02591
G1 X169.915 Y183.012 E.03587
G1 X170.261 Y182.502 E.04347
G1 X170.391 Y183.057 E.04023
G1 X170.493 Y183.22 E.01357
G1 X170.789 Y183.553 E.03142
G1 X171.182 Y183.738 E.03066
G1 X171.535 Y183.796 E.0252
G1 X172.139 Y183.758 E.04269
G1 X172.89 Y183.764 E.05298
G1 X173.488 Y183.728 E.04226
G1 X174.138 Y183.611 E.04657
G1 X174.641 Y183.433 E.03769
G1 X175.077 Y183.161 E.03627
G1 X175.149 Y183.305 E.01139
G1 X175.446 Y183.7 E.03486
G1 X175.991 Y184.065 E.0463
G1 X176.302 Y184.179 E.02334
G1 X176.661 Y184.235 E.02564
G1 X176.958 Y184.228 E.02093
G1 X177.55 Y184.072 E.04323
G1 X177.857 Y183.868 E.02598
G1 X178.16 Y183.622 E.02757
G1 X178.206 Y183.666 E.00446
G1 X178.629 Y183.895 E.0339
G1 X179.017 Y183.957 E.02772
G1 X179.321 Y183.932 E.02154
G1 X179.741 Y183.74 E.03255
G1 X180.099 Y183.359 E.03693
G1 X180.248 Y183.557 E.01754
G1 X180.555 Y183.804 E.02777
G1 X180.903 Y183.94 E.02639
;WIDTH:0.63629
G1 X181.308 Y183.965 E.02892
;WIDTH:0.67785
G1 X181.418 Y183.963 E.00843
;WIDTH:0.71941
G1 X181.528 Y183.96 E.009
;WIDTH:0.76097
G1 X181.638 Y183.957 E.00957
;WIDTH:0.80253
G1 X181.748 Y183.954 E.01014
;WIDTH:0.844091
G1 X181.858 Y183.951 E.01071
G1 X181.833 Y183.975 E.00328
;WIDTH:0.83213
G1 X181.765 Y184.075 E.01167
;WIDTH:0.782544
G1 X181.696 Y184.176 E.01092
;WIDTH:0.732959
G1 X181.628 Y184.277 E.01016
;WIDTH:0.683374
G1 X181.534 Y184.522 E.02025
;WIDTH:0.656687
G1 X181.439 Y184.766 E.01938
;WIDTH:0.63
G1 X181.415 Y185.202 E.03079
G1 X181.578 Y185.717 E.03807
G1 X181.833 Y186.072 E.0309
G1 X182.08 Y186.274 E.02247
G1 X182.456 Y186.448 E.02923
;WIDTH:0.623157
G1 X182.563 Y186.455 E.00751
;WIDTH:0.609726
G1 X182.86 Y186.446 E.02016
;WIDTH:0.582827
G1 X183.156 Y186.437 E.01917
;WIDTH:0.558411
G1 X183.678 Y186.296 E.03333
;WIDTH:0.59327
G1 X184.07 Y186.138 E.02792
;WIDTH:0.628133
G1 X184.484 Y185.852 E.03531
;WIDTH:0.63
G1 X184.911 Y185.298 E.04938
G1 X185.057 Y185.009 E.02284
G1 X185.268 Y184.539 E.03631
G1 X185.774 Y183.21 E.1003
;WIDTH:0.655609
G1 X186.012 Y182.583 E.04946
;WIDTH:0.698378
G1 X186.075 Y182.469 E.01035
;WIDTH:0.741147
G1 X186.139 Y182.355 E.01105
;WIDTH:0.783916
G1 X186.203 Y182.24 E.01175
;WIDTH:0.826685
G1 X186.266 Y182.126 E.01245
G1 X186.273 Y182.241 E.01093
;WIDTH:0.788603
G1 X186.3 Y182.425 E.01686
;WIDTH:0.748952
G1 X186.328 Y182.61 E.01594
;WIDTH:0.709301
G1 X186.356 Y182.794 E.01502
;WIDTH:0.66965
G1 X186.383 Y182.979 E.01409
;WIDTH:0.63
G1 X186.576 Y183.412 E.03345
G1 X186.927 Y183.766 E.03514
G1 X187.193 Y183.889 E.02069
G1 X187.701 Y183.982 E.03644
G1 X188.246 Y183.955 E.03848
G1 X189.1 Y183.957 E.06024
G1 X188.395 Y184.516 E.06347
G1 X187.901 Y184.863 E.04258
G1 X187.369 Y185.201 E.04449
G1 X186.433 Y185.717 E.07538
G1 X185.816 Y186.015 E.04834
G1 X185.125 Y186.308 E.05293
G1 X184.502 Y186.537 E.04684
;WIDTH:0.608284
G1 X183.81 Y186.772 E.04959
;WIDTH:0.575429
G1 X182.973 Y186.968 E.0548
;WIDTH:0.623157
G1 X182.44 Y187.053 E.0376
;WIDTH:0.63
G1 X181.611 Y187.167 E.05901
G1 X180.747 Y187.237 E.06121
G1 X179.829 Y187.252 E.06476
G1 X179.179 Y187.227 E.04588
G1 X155.967 Y185.808 E1.64061
G1 X155.467 Y185.707 E.03593
G1 X155.23 Y185.549 E.02009
G1 X155.065 Y185.258 E.02363
G1 X154.985 Y184.838 E.03016
G1 X154.986 Y182.706 E.15037
G1 X155.14 Y182.894 E.01716
G1 X155.743 Y183.404 E.05571
G1 X156.545 Y183.783 E.06256
G1 X157.231 Y183.915 E.04932
G1 X158.221 Y183.883 E.06989
G1 X158.821 Y183.72 E.04384
G1 X159.439 Y183.375 E.04995
G1 X159.78 Y183.055 E.033
G1 X160.068 Y182.622 E.03667
