; generated by SuperSlicer 2.5.59 on 2023-01-03 at 22:21:02 UTC

; 

; external perimeters extrusion width = 0.62mm
; perimeters extrusion width = 0.67mm
; infill extrusion width = 0.64mm
; solid infill extrusion width = 0.67mm
; top infill extrusion width = 0.64mm
; first layer extrusion width = 0.82mm

; object:{"name":"ringing_tower","id":"ringing_tower.stl id:0 copy 0","object_center":[180.000000,180.000000,0.000000],"boundingbox_center":[180.000000,180.000000,30.000000],"boundingbox_size":[120.000000,120.000000,60.000000]}
; plater:{"center":[180.000000,180.000000,0.000000],"boundingbox_center":[180.000000,180.000000,30.000000],"boundingbox_size":[120.000000,120.000000,60.000000]}

;TYPE:Custom
G90 ; use absolute coordinates
M83 ; extruder relative mode
M140 S60 ; set final bed temp
M104 S150 ; set temporary nozzle temp to prevent oozing during homing and auto bed leveling
M190 S60 ; wait for bed temp to stabilize
G28 ; home all axis
G29 ; auto bed levelling
G1 Z50 F240
G1 X2 Y10 F3000
M104 S205 ; set final nozzle temp
M109 S205 ; wait for nozzle temp to stabilize
G1 Z0.28 F240
G92 E0
G1 Y140 E10 F1500 ; prime the nozzle
G1 X2.3 F5000
G92 E0
G1 Y10 E10 F1200 ; prime the nozzle
G92 E0
M107
G21 ; set units to millimeters
G90 ; use absolute coordinates
M82 ; use absolute distances for extrusion
G92 E0
; Filament gcode
;_TOOLCHANGE 0
M107
;LAYER_CHANGE
;Z:0.2
;HEIGHT:0.2
;BEFORE_LAYER_CHANGE
;0.2


G1 E-3 F3600
G1 Z0.2 F9000
;AFTER_LAYER_CHANGE
;0.2
G92 E0
M204 S500
G1 X118.144 Y117.225
G1 E3 F2400
;TYPE:Skirt
;WIDTH:0.72
G1 F1200
G1 X117.055 Y118.427 E3.09132
G1 X116.661 Y120 E3.18263
G1 X116.661 Y240 E9.93856
G1 X117.225 Y241.856 E10.04773
G1 X118.427 Y242.945 E10.13905
G1 X120 Y243.339 E10.23036
G1 X128 Y243.339 E10.68076
G1 X128.97 Y243.195 E10.73594
G1 X130.361 Y242.361 E10.82726
G1 X242.361 Y130.361 E19.74463
G1 X242.945 Y129.573 E19.79981
G1 X243.339 Y128 E19.89113
G1 X243.339 Y120 E20.34152
G1 X242.775 Y118.144 E20.45069
G1 X241.573 Y117.055 E20.54201
G1 X240 Y116.661 E20.63332
G1 X120 Y116.661 E27.38925
G1 X118.231 Y117.198 E27.49336
G92 E0
G1 E-2.1 F3600
;WIPE_START
G1 F7200
G1 X117.055 Y118.427 E-2.90741
G1 X117.031 Y118.524 E-2.955
;WIPE_END
G1 E-3 F3600
; printing object ringing_tower.stl id:0 copy 0
; acceleration to travel
M204 S1500
G1 X120.826 Y120.989 F9000
; decel to extrusion
M204 S500
G1 X121.29 Y121.29
; end travel
G1 E0 F2400
;TYPE:Internal perimeter
;WIDTH:0.779079
G1 F1200
G1 X150.953 Y121.29 E1.81573
G1 X148.831 Y124.32 E2.04217
G1 X148.659 Y124.692 E2.06726
G1 X148.621 Y125.047 E2.08912
G1 X148.82 Y125.661 E2.12861
G1 X149.207 Y126.093 E2.16412
G1 X149.37 Y126.12 E2.17419
;WIDTH:0.719206
G1 X149.532 Y126.147 E2.18344
;WIDTH:0.659333
G1 X149.694 Y126.173 E2.19188
;WIDTH:0.59946
G1 X149.857 Y126.2 E2.19949
G1 X156.456 Y126.2 E2.50488
G1 X156.618 Y126.173 E2.5125
;WIDTH:0.659333
G1 X156.78 Y126.147 E2.52093
;WIDTH:0.719206
G1 X156.943 Y126.12 E2.53018
;WIDTH:0.779079
G1 X157.105 Y126.093 E2.54025
G1 X157.492 Y125.661 E2.57576
G1 X157.56 Y125.53 E2.58479
G1 X157.691 Y125.047 E2.61541
G1 X157.654 Y124.692 E2.63727
G1 X157.481 Y124.32 E2.66236
G1 X155.359 Y121.29 E2.88881
G1 X191.908 Y121.29 E5.12599
G1 X195.06 Y125.792 E5.46238
G1 X195.447 Y126.142 E5.49435
G1 X195.59 Y126.156 E5.50311
;WIDTH:0.719206
G1 X195.732 Y126.171 E5.51116
;WIDTH:0.659333
G1 X195.874 Y126.186 E5.5185
;WIDTH:0.59946
G1 X196.017 Y126.2 E5.52513
G1 X203.643 Y126.2 E5.87806
G1 X203.786 Y126.186 E5.88468
;WIDTH:0.659333
G1 X203.928 Y126.171 E5.89202
;WIDTH:0.719206
G1 X204.071 Y126.156 E5.90007
;WIDTH:0.779079
G1 X204.213 Y126.142 E5.90884
G1 X204.601 Y125.792 E5.9408
G1 X207.753 Y121.29 E6.27719
G1 X238.71 Y121.29 E8.17214
G1 X238.71 Y126.71 E8.5039
G1 X204.361 Y126.71 E10.60646
G1 X204.182 Y126.732 E10.61752
;WIDTH:0.719206
G1 X204.002 Y126.755 E10.62769
;WIDTH:0.659333
G1 X203.823 Y126.777 E10.63696
;WIDTH:0.59946
G1 X203.643 Y126.8 E10.64533
G1 X196.017 Y126.8 E10.99825
G1 X195.838 Y126.777 E11.00662
;WIDTH:0.659333
G1 X195.658 Y126.755 E11.01589
;WIDTH:0.719206
G1 X195.479 Y126.732 E11.02605
;WIDTH:0.779079
G1 X195.299 Y126.71 E11.03712
G1 X188.534 Y126.71 E11.45121
G1 X187.741 Y125.916 E11.51992
G1 X187.15 Y125.376 E11.56894
G1 X186.867 Y125.254 E11.5878
G1 X186.55 Y125.21 E11.60737
G1 X181.45 Y125.21 E11.91959
G1 X181.248 Y125.227 E11.93199
G1 X180.85 Y125.376 E11.95797
G1 X180.623 Y125.552 E11.97556
G1 X179.466 Y126.71 E12.07578
G1 X157.292 Y126.71 E13.43305
G1 X157.083 Y126.732 E13.44593
;WIDTH:0.719206
G1 X156.874 Y126.755 E13.45776
;WIDTH:0.659333
G1 X156.665 Y126.777 E13.46854
;WIDTH:0.59946
G1 X156.456 Y126.8 E13.47827
G1 X149.857 Y126.8 E13.78366
G1 X149.647 Y126.777 E13.79339
;WIDTH:0.659333
G1 X149.438 Y126.755 E13.80417
;WIDTH:0.719206
G1 X149.229 Y126.732 E13.816
;WIDTH:0.779079
G1 X149.02 Y126.71 E13.82888
G1 X127.879 Y126.71 E15.12299
G1 X127.677 Y126.727 E15.13539
G1 X127.414 Y126.806 E15.15215
G1 X127.052 Y127.052 E15.17895
G1 X126.806 Y127.414 E15.20576
G1 X126.71 Y127.879 E15.23477
G1 X126.71 Y155.64 E16.93408
G1 X126.732 Y155.819 E16.94515
;WIDTH:0.719206
G1 X126.755 Y155.999 E16.95533
;WIDTH:0.659334
G1 X126.777 Y156.178 E16.9646
;WIDTH:0.599478
G1 X126.8 Y156.358 E16.97297
G1 X126.799 Y159.065 E17.09826
G1 X126.799 Y161.772 E17.22354
G1 X126.799 Y161.884 E17.22871
G1 X126.726 Y161.968 E17.23387
G1 X126.192 Y162.585 E17.2716
G1 X126.197 Y162.421 E17.27917
G1 X126.197 Y161.772 E17.30922
G1 X126.199 Y159.065 E17.4345
G1 X126.2 Y156.357 E17.55979
G1 X126.186 Y156.214 E17.56645
;WIDTH:0.659333
G1 X126.171 Y156.072 E17.57378
;WIDTH:0.719206
G1 X126.157 Y155.93 E17.58183
;WIDTH:0.779079
G1 X126.142 Y155.787 E17.59059
G1 X125.792 Y155.399 E17.62258
G1 X121.29 Y152.247 E17.95897
G1 X121.29 Y121.38 E19.8484
G92 E0
G1 E-2.1 F3600
;WIPE_START
G1 F7200
G1 X123.09 Y121.375 E-2.955
;WIPE_END
G1 E-3 F3600
; acceleration to travel
M204 S1500
G1 X125 Y160.508 F9000
; decel to extrusion
M204 S500
G1 X125.234 Y165.289
; end travel
G1 E0 F2400
G1 F1200
G1 X125.226 Y165.647 E0.0219
G1 X125.21 Y166.456 E0.07143
G1 X125.21 Y169.111 E0.23393
G1 X125.227 Y170.061 E0.29214
G1 X125.346 Y170.408 E0.31455
G1 X125.496 Y170.626 E0.33074
G1 X126.71 Y172.023 E0.44404
G1 X126.71 Y195.977 E1.91029
G1 X126.046 Y196.741 E1.97227
G1 X125.346 Y197.593 E2.03973
G1 X125.245 Y197.855 E2.05692
G1 X125.21 Y198.141 E2.07454
G1 X125.215 Y202.026 E2.31237
G1 X125.254 Y202.536 E2.3437
G1 X124.963 Y202.416 E2.36296
G1 X124.483 Y202.545 E2.39338
G1 X123.926 Y202.838 E2.43192
G1 X123.447 Y203.137 E2.46651
G1 X121.29 Y204.643 E2.62752
G1 X121.29 Y168.092 E4.86492
G1 X124.327 Y165.961 E5.092
G1 X125.161 Y165.343 E5.15557
G92 E0
G1 E-2.1 F3600
;WIPE_START
G1 F7200
G1 X125.226 Y165.647 E-2.24771
G1 X125.21 Y166.456 E-2.63205
G1 X125.21 Y167.136 E-2.955
;WIPE_END
G1 E-3 F3600
; acceleration to travel
M204 S1500
G1 X126.147 Y201.317 F9000
; decel to extrusion
M204 S500
G1 X126.262 Y205.493
; end travel
G1 E0 F2400
;WIDTH:0.609899
G1 F1200
G1 X126.799 Y206.116 E0.0388
G1 X126.799 Y206.228 E0.04406
G1 X126.799 Y208.185 E0.13633
G1 X126.8 Y210.142 E0.22859
G1 X126.795 Y210.383 E0.23997
G1 X126.773 Y210.532 E0.24707
;WIDTH:0.666292
G1 X126.752 Y210.681 E0.25487
;WIDTH:0.722686
G1 X126.731 Y210.83 E0.26337
;WIDTH:0.779079
G1 X126.71 Y210.979 E0.27258
G1 X126.71 Y238.71 E1.97002
G1 X121.29 Y238.71 E2.30178
G1 X121.29 Y209.047 E4.11751
G1 X124.32 Y211.169 E4.34395
G1 X124.692 Y211.341 E4.36904
G1 X125.047 Y211.379 E4.3909
G1 X125.661 Y211.18 E4.43039
G1 X126.093 Y210.792 E4.46593
G1 X126.12 Y210.63 E4.47601
;WIDTH:0.719204
G1 X126.147 Y210.467 E4.48527
;WIDTH:0.659329
G1 X126.174 Y210.305 E4.49371
;WIDTH:0.601313
G1 X126.2 Y210.142 E4.50136
G1 X126.199 Y208.185 E4.59223
G1 X126.197 Y206.228 E4.6831
G1 X126.19 Y205.417 E4.72077
G92 E0
G1 E-2.1 F3600
;WIPE_START
G1 F7200
G1 X126.799 Y206.116 E-2.5403
G1 X126.799 Y206.228 E-2.59332
G1 X126.799 Y206.989 E-2.955
;WIPE_END
G1 E-3 F3600
; acceleration to travel
M204 S1500
G1 X127.414 Y235.951 F9000
; decel to extrusion
M204 S500
G1 X127.489 Y239.489
; end travel
G1 E0 F2400
;TYPE:External perimeter
;WIDTH:0.779079
G1 F1200
G1 X120.511 Y239.489 E0.42714
G1 X120.511 Y207.55 E2.38216
G1 X124.767 Y210.531 E2.70022
G1 X125.01 Y210.601 E2.71565
G1 X125.171 Y210.557 E2.72586
G1 X125.445 Y210.36 E2.74657
G1 X125.511 Y210.143 E2.76041
G1 X125.507 Y206.229 E3.00003
G1 X125.506 Y205.573 E3.04017
G1 X125.432 Y204.603 E3.09973
G1 X125.414 Y204.35 E3.11522
;WIDTH:0.726241
G1 X125.397 Y204.098 E3.12961
G1 X125.39 Y203.837 E3.14445
G1 X125.384 Y203.576 E3.15929
G1 X125.347 Y203.448 E3.16681
;WIDTH:0.779079
G1 X125.309 Y203.321 E3.17491
G1 X125.002 Y203.194 E3.19531
G1 X124.842 Y203.237 E3.20546
G1 X124.337 Y203.5 E3.2403
G1 X123.893 Y203.776 E3.2723
G1 X120.511 Y206.138 E3.52479
G1 X120.511 Y167.687 E5.87846
G1 X123.879 Y165.323 E6.13033
G1 X124.552 Y164.848 E6.18075
G1 X125.276 Y164.224 E6.23921
G1 X125.33 Y164.094 E6.24788
;WIDTH:0.73129
G1 X125.385 Y163.963 E6.25598
G1 X125.405 Y163.706 E6.27074
;WIDTH:0.779079
G1 X125.425 Y163.449 E6.28653
G1 X125.482 Y162.94 E6.31788
G1 X125.506 Y162.421 E6.34971
G1 X125.511 Y156.357 E6.72089
G1 X125.462 Y156.167 E6.73291
G1 X125.345 Y156.038 E6.74357
G1 X120.511 Y152.653 E7.10479
G1 X120.511 Y120.511 E9.07225
G1 X152.45 Y120.511 E11.02727
G1 X149.469 Y124.767 E11.34533
G1 X149.399 Y125.01 E11.36077
G1 X149.443 Y125.171 E11.37098
G1 X149.64 Y125.445 E11.39167
G1 X149.857 Y125.511 E11.40552
G1 X156.456 Y125.511 E11.80947
G1 X156.672 Y125.445 E11.82332
G1 X156.801 Y125.301 E11.83516
G1 X156.913 Y125.01 E11.85428
G1 X156.843 Y124.767 E11.86972
G1 X153.863 Y120.511 E12.18777
G1 X192.313 Y120.511 E14.54139
G1 X195.698 Y125.345 E14.90261
G1 X195.827 Y125.462 E14.91326
G1 X196.017 Y125.511 E14.92527
G1 X203.643 Y125.511 E15.3921
G1 X203.833 Y125.462 E15.40411
G1 X203.962 Y125.345 E15.41477
G1 X207.347 Y120.511 E15.77599
G1 X239.489 Y120.511 E17.74345
G1 X239.489 Y127.489 E18.17058
G1 X188.212 Y127.489 E21.30936
G1 X187.19 Y126.467 E21.39782
G1 X186.75 Y126.044 E21.43516
G1 X186.55 Y125.989 E21.44786
G1 X181.45 Y125.989 E21.76007
G1 X181.382 Y125.995 E21.76421
G1 X181.174 Y126.103 E21.77857
G1 X179.788 Y127.489 E21.89854
G1 X127.879 Y127.489 E25.07604
G1 X127.724 Y127.521 E25.08571
G1 X127.558 Y127.658 E25.09889
G1 X127.489 Y127.879 E25.11303
G1 X127.489 Y162.14 E27.21024
G1 X126.825 Y162.911 E27.27252
G1 X126.494 Y163.351 E27.30623
G1 X126.328 Y163.589 E27.32403
;WIDTH:0.736754
G1 X126.162 Y163.828 E27.34079
G1 X126.132 Y163.982 E27.34984
G1 X126.103 Y164.136 E27.35888
G1 X126.061 Y164.571 E27.38411
;WIDTH:0.779079
G1 X126.019 Y165.007 E27.41089
G1 X126.005 Y165.663 E27.45107
G1 X125.989 Y166.456 E27.49961
G1 X125.989 Y169.111 E27.66212
G1 X125.995 Y169.927 E27.71208
G1 X126.084 Y170.115 E27.72483
G1 X127.489 Y171.732 E27.85595
G1 X127.489 Y196.268 E29.35783
G1 X126.634 Y197.252 E29.43762
G1 X126.034 Y197.958 E29.49432
G1 X125.989 Y198.141 E29.50584
G1 X125.993 Y201.342 E29.70179
G1 X125.995 Y202.057 E29.7456
G1 X126.076 Y203.02 E29.8047
G1 X126.098 Y203.52 E29.83535
;WIDTH:0.730522
G1 X126.12 Y204.02 E29.86397
G1 X126.187 Y204.164 E29.87306
;WIDTH:0.779079
G1 X126.255 Y204.308 E29.8828
G1 X126.717 Y204.963 E29.93188
G1 X127.489 Y205.86 E30.00431
G1 X127.489 Y239.399 E32.05729
;WIPE_START
G1 X126.969 Y239.189 F9000
;WIPE_END
G92 E0
G1 E-2.1 F3600
;WIPE_START
G1 F7200
G1 X125.169 Y239.189 E-2.955
;WIPE_END
G1 E-3 F3600
; acceleration to travel
M204 S1500
G1 X126.334 Y215.662 F9000
; decel to extrusion
M204 S500
G1 X126.476 Y212.788
; end travel
G1 E0 F2400
;TYPE:Solid infill
;WIDTH:0.826887
G1 F1200
G1 X125.519 Y211.831 E0.08819
G1 X125.081 Y211.95 E0.1178
G1 X124.553 Y211.894 E0.15239
G1 X124.441 Y211.854 E0.16014
G1 X126.141 Y213.555 E0.31685
G1 X126.141 Y214.656 E0.38865
G1 X121.859 Y210.374 E0.78331
G1 X121.859 Y211.476 E0.85511
G1 X126.141 Y215.758 E1.24978
G1 X126.141 Y216.86 E1.32158
G1 X121.859 Y212.577 E1.71624
G1 X121.859 Y213.679 E1.78804
G1 X126.141 Y217.962 E2.1827
G1 X126.141 Y219.064 E2.2545
G1 X121.859 Y214.781 E2.64917
G1 X121.859 Y215.883 E2.72096
G1 X126.141 Y220.165 E3.11563
G1 X126.141 Y221.267 E3.18743
G1 X121.859 Y216.985 E3.58209
G1 X121.859 Y218.086 E3.65389
G1 X126.141 Y222.369 E4.04855
G1 X126.141 Y223.471 E4.12035
G1 X121.859 Y219.188 E4.51502
G1 X121.859 Y220.29 E4.58681
G1 X126.141 Y224.572 E4.98148
G1 X126.141 Y225.674 E5.05328
G1 X121.859 Y221.392 E5.44794
G1 X121.859 Y222.494 E5.51974
G1 X126.141 Y226.776 E5.9144
G1 X126.141 Y227.878 E5.9862
G1 X121.859 Y223.595 E6.38087
G1 X121.859 Y224.697 E6.45267
G1 X126.141 Y228.98 E6.84733
G1 X126.141 Y230.081 E6.91913
G1 X121.859 Y225.799 E7.31379
G1 X121.859 Y226.901 E7.38559
G1 X126.141 Y231.183 E7.78025
G1 X126.141 Y232.285 E7.85205
G1 X121.859 Y228.002 E8.24672
G1 X121.859 Y229.104 E8.31852
G1 X126.141 Y233.387 E8.71318
G1 X126.141 Y234.488 E8.78498
G1 X121.859 Y230.206 E9.17964
G1 X121.859 Y231.308 E9.25144
G1 X126.141 Y235.59 E9.6461
G1 X126.141 Y236.692 E9.7179
G1 X121.859 Y232.41 E10.11257
G1 X121.859 Y233.511 E10.18437
G1 X126.141 Y237.794 E10.57903
G1 X126.141 Y238.141 E10.60167
G1 X125.387 Y238.141 E10.65083
G1 X121.859 Y234.613 E10.97597
G1 X121.859 Y235.715 E11.04777
G1 X124.285 Y238.141 E11.27137
G1 X123.183 Y238.141 E11.34317
G1 X121.859 Y236.817 E11.46523
G1 X121.859 Y237.919 E11.53703
G1 X122.416 Y238.476 E11.58842
G92 E0
G1 E-2.1 F3600
;WIPE_START
G1 F7200
G1 X121.859 Y237.919 E-2.47463
G1 X121.859 Y236.907 E-2.955
;WIPE_END
G1 E-3 F3600
; acceleration to travel
M204 S1500
G1 X123.831 Y174.098 F9000
; decel to extrusion
M204 S500
G1 X124.072 Y166.425
; end travel
G1 E0 F2400
;WIDTH:0.825598
G1 F1200
G1 X124.642 Y166.994 E0.05237
G1 X124.641 Y168.095 E0.12405
G1 X123.665 Y167.119 E0.21385
G1 X123.018 Y167.574 E0.26532
G1 X124.641 Y169.197 E0.41468
G1 X124.641 Y169.871 E0.4585
G1 X124.693 Y170.286 E0.48571
G1 X124.734 Y170.391 E0.49308
G1 X122.371 Y168.028 E0.71052
G1 X121.859 Y168.387 E0.7512
G1 X121.859 Y168.618 E0.76622
G1 X126.141 Y172.901 E1.16027
G1 X126.141 Y174.002 E1.23196
G1 X121.859 Y169.72 E1.626
G1 X121.859 Y170.822 E1.69769
G1 X126.141 Y175.104 E2.09174
G1 X126.141 Y176.206 E2.16343
G1 X121.859 Y171.924 E2.55747
G1 X121.859 Y173.025 E2.62916
G1 X126.141 Y177.308 E3.02321
G1 X126.141 Y178.41 E3.0949
G1 X121.859 Y174.127 E3.48894
G1 X121.859 Y175.229 E3.56063
G1 X126.141 Y179.511 E3.95468
G1 X126.141 Y180.613 E4.02637
G1 X121.859 Y176.331 E4.42042
G1 X121.859 Y177.432 E4.4921
G1 X126.141 Y181.715 E4.88615
G1 X126.141 Y182.817 E4.95784
G1 X121.859 Y178.534 E5.35189
G1 X121.859 Y179.636 E5.42357
G1 X126.141 Y183.918 E5.81762
G1 X126.141 Y185.02 E5.88931
G1 X121.859 Y180.738 E6.28336
G1 X121.859 Y181.84 E6.35504
G1 X126.141 Y186.122 E6.74909
G1 X126.141 Y187.224 E6.82078
G1 X121.859 Y182.941 E7.21483
G1 X121.859 Y184.043 E7.28651
G1 X126.141 Y188.326 E7.68056
G1 X126.141 Y189.427 E7.75225
G1 X121.859 Y185.145 E8.1463
G1 X121.859 Y186.247 E8.21798
G1 X126.141 Y190.529 E8.61203
G1 X126.141 Y191.631 E8.68372
G1 X121.859 Y187.348 E9.07777
G1 X121.859 Y188.45 E9.14946
G1 X126.141 Y192.733 E9.5435
G1 X126.141 Y193.835 E9.61519
G1 X121.859 Y189.552 E10.00924
G1 X121.859 Y190.654 E10.08093
G1 X126.141 Y194.936 E10.47497
G1 X126.141 Y195.764 E10.52885
G1 X126.014 Y195.911 E10.54148
G1 X121.859 Y191.756 E10.92382
G1 X121.859 Y192.857 E10.9955
G1 X125.502 Y196.5 E11.33072
G1 X125.06 Y197.009 E11.37455
G1 X124.999 Y197.099 E11.38164
G1 X121.859 Y193.959 E11.67054
G1 X121.859 Y195.061 E11.74223
G1 X124.673 Y197.875 E12.00116
G1 X124.641 Y198.13 E12.01785
G1 X124.642 Y198.946 E12.07099
G1 X121.859 Y196.163 E12.32711
G1 X121.859 Y197.265 E12.3988
G1 X124.644 Y200.05 E12.65506
G1 X124.645 Y201.153 E12.72684
G1 X121.859 Y198.366 E12.98323
G1 X121.859 Y199.468 E13.05492
G1 X124.379 Y201.988 E13.28683
G1 X124.235 Y202.033 E13.29663
G1 X123.637 Y202.348 E13.34062
G1 X121.859 Y200.57 E13.50426
G1 X121.859 Y201.672 E13.57594
G1 X122.966 Y202.779 E13.67784
G1 X122.317 Y203.232 E13.72933
G1 X121.524 Y202.438 E13.80236
G92 E0
G1 E-2.1 F3600
;WIPE_START
G1 F7200
G1 X122.317 Y203.232 E-2.63319
