; generated by PrusaSlicer 2.5.0+MacOS-arm64 on 2023-01-03 at 21:11:59 UTC

; 

; external perimeters extrusion width = 0.63mm
; perimeters extrusion width = 0.66mm
; infill extrusion width = 0.66mm
; solid infill extrusion width = 0.66mm
; top infill extrusion width = 0.60mm
; first layer extrusion width = 0.63mm

M201 X500 Y500 Z100 E1000 ; sets maximum accelerations, mm/sec^2
M203 X300 Y300 Z5 E60 ; sets maximum feedrates, mm / sec
M204 P500 R1000 T500 ; sets acceleration (P, T) and retract acceleration (R), mm/sec^2
M205 X8.00 Y8.00 Z0.40 E5.00 ; sets the jerk limits, mm/sec
M205 S0 T0 ; sets the minimum extruding and travel feed rate, mm/sec
M107
;TYPE:Custom
G90 ; use absolute coordinates
M83 ; extruder relative mode
M104 S150 ; set temporary nozzle temp to prevent oozing during homing and auto bed leveling
M140 S60 ; set final bed temp
M190 S60 ; wait for bed temp to stabilize
G28 ; home all axis
G1 Z50 F240
G1 X2.0 Y10 F3000
M104 S210 ; set final nozzle temp
M109 S210 ; wait for nozzle temp to stabilize
G1 Z0.28 F240
G92 E0
G1 X2.0 Y140 E10 F1500 ; prime the nozzle
G1 X2.3 Y140 F5000
G92 E0
G1 X2.3 Y10 E10 F1200 ; prime the nozzle
G92 E0
G21 ; set units to millimeters
G90 ; use absolute coordinates
M83 ; use relative distances for extrusion
; Filament gcode
M107
;LAYER_CHANGE
;Z:0.3
;HEIGHT:0.3
;BEFORE_LAYER_CHANGE
G92 E0
;0.3


G1 Z.3 F9000
;AFTER_LAYER_CHANGE
;0.3
G1 E-4 F2400
G1 X117.925 Y117.101 F9000
G1 E4 F2400
;TYPE:Skirt/Brim
;WIDTH:0.63
G1 F1200
G1 X120 Y116.434 E.15376
G1 X240 Y116.434 E8.46566
G1 X241.63 Y116.829 E.11831
G1 X242.899 Y117.925 E.11831
G1 X243.566 Y120 E.15376
G1 X243.566 Y128 E.56438
G1 X243.171 Y129.63 E.11831
G1 X242.521 Y130.521 E.07782
G1 X130.521 Y242.521 E11.1741
G1 X129.09 Y243.395 E.11831
G1 X128 Y243.566 E.07782
G1 X120 Y243.566 E.56438
G1 X118.37 Y243.171 E.11831
G1 X117.101 Y242.075 E.11831
G1 X116.434 Y240 E.15376
G1 X116.434 Y120 E8.46566
G1 X116.829 Y118.37 E.11831
G1 X117.866 Y117.169 E.11196
; printing object ringing_tower.stl id:0 copy 0
G1 E-2.8 F2400
;WIPE_START
G1 F7200
G1 X120 Y116.434 E-.71469
G1 X121.343 Y116.434 E-.42531
;WIPE_END
G1 E-.06 F2400
G1 X120.415 Y120.415 F9000
G1 E4 F2400
;TYPE:External perimeter
;WIDTH:0.63
G1 F1200
G1 X152.675 Y120.415 E2.27583
G1 X149.585 Y124.828 E.38003
G1 X149.543 Y124.918 E.00699
G1 X149.566 Y125.12 E.01441
G1 X149.733 Y125.367 E.02106
G1 X149.891 Y125.415 E.01159
G1 X156.503 Y125.415 E.46648
G1 X156.66 Y125.367 E.01159
G1 X156.754 Y125.263 E.0099
G1 X156.859 Y125.003 E.01975
G1 X156.809 Y124.828 E.01291
G1 X153.719 Y120.415 E.38003
G1 X192.404 Y120.415 E2.7291
G1 X195.82 Y125.294 E.42022
G1 X195.914 Y125.379 E.00892
G1 X196.052 Y125.415 E.01005
G1 X203.738 Y125.411 E.54226
G1 X203.921 Y125.294 E.01529
G1 X207.338 Y120.415 E.42022
G1 X239.585 Y120.415 E2.27495
G1 X239.585 Y127.585 E.50582
G1 X188.172 Y127.585 E3.62705
G1 X186.7 Y126.125 E.14626
G1 X186.555 Y126.085 E.01062
G1 X181.445 Y126.085 E.36046
G1 X181.396 Y126.089 E.00346
G1 X181.245 Y126.168 E.01202
G1 X179.828 Y127.585 E.14139
G1 X127.868 Y127.585 E3.66565
G1 X127.755 Y127.608 E.00809
G1 X127.635 Y127.708 E.01103
G1 X127.585 Y127.868 E.01184
G1 X127.585 Y162.203 E2.42228
G1 X127.319 Y162.51 E.0286
;WIDTH:0.650044
G1 X126.147 Y163.844 E.12977
;WIDTH:0.686872
G1 X126.057 Y164.056 E.01785
G1 X126.07 Y164.323 E.02082
;WIDTH:0.660339
G1 X126.083 Y164.591 E.01993
;WIDTH:0.633806
G1 X126.085 Y169.072 E.31824
;WIDTH:0.63
G1 X126.085 Y169.892 E.05784
G1 X126.154 Y170.077 E.01397
G1 X127.585 Y171.725 E.15393
G1 X127.585 Y196.275 E1.73197
G1 X126.154 Y197.923 E.15393
G1 X126.085 Y198.108 E.01397
G1 X126.085 Y202.747 E.32729
;WIDTH:0.656095
G1 X126.072 Y203.356 E.0449
;WIDTH:0.682191
G1 X126.059 Y203.964 E.04688
G1 X126.146 Y204.157 E.0163
;WIDTH:0.652427
G1 X127.319 Y205.49 E.1303
;WIDTH:0.63
G1 X127.585 Y205.797 E.0286
G1 X127.585 Y239.585 E2.38368
G1 X120.415 Y239.585 E.50582
G1 X120.415 Y207.325 E2.27583
G1 X124.828 Y210.415 E.38003
G1 X124.918 Y210.457 E.00699
G1 X125.12 Y210.434 E.01441
G1 X125.367 Y210.267 E.02106
G1 X125.415 Y210.109 E.01159
G1 X125.415 Y206.202 E.27566
;WIDTH:0.652427
G1 X125.426 Y204.425 E.1303
;WIDTH:0.686872
G1 X125.441 Y203.497 E.07209
;WIDTH:0.682191
G1 X125.352 Y203.372 E.01186
;WIDTH:0.656095
G1 X125.263 Y203.246 E.01136
;WIDTH:0.63
G1 X125.12 Y203.172 E.01132
G1 X124.929 Y203.147 E.01359
G1 X124.828 Y203.191 E.00784
G1 X120.415 Y206.281 E.38003
G1 X120.415 Y167.596 E2.7291
G1 X121.624 Y166.75 E.10411
;WIDTH:0.633806
G1 X125.295 Y164.181 E.31824
;WIDTH:0.660339
G1 X125.367 Y164.092 E.00853
;WIDTH:0.686872
G1 X125.439 Y164.002 E.00891
G1 X125.425 Y163.575 E.03319
;WIDTH:0.650044
G1 X125.415 Y161.798 E.12977
;WIDTH:0.63
G1 X125.415 Y156.31 E.38714
G1 X125.379 Y156.173 E.01005
G1 X125.294 Y156.079 E.00892
G1 X120.415 Y152.662 E.42022
G1 X120.415 Y120.505 E2.2686
G1 E-2.8 F2400
;WIPE_START
G1 F7200
G1 X124.015 Y120.495 E-1.14
;WIPE_END
G1 E-.06 F2400
G1 X127.404 Y206.813 F9000
G1 E4 F2400
;TYPE:Solid infill
;WIDTH:0.63963
G1 F1200
G1 X125.862 Y205.271 E.15644
G1 X125.852 Y206.074 E.05765
G1 X127.149 Y207.372 E.13164
G1 X127.149 Y208.185 E.05837
G1 X125.851 Y206.886 E.13181
G1 X125.851 Y207.7 E.05837
G1 X127.149 Y208.999 E.13181
G1 X127.149 Y209.812 E.05837
G1 X125.851 Y208.513 E.13181
G1 X125.851 Y209.327 E.05837
G1 X127.149 Y210.626 E.1318
G1 X127.149 Y211.439 E.05837
G1 X125.849 Y210.138 E.132
G1 X125.839 Y210.243 E.00753
G1 X125.731 Y210.514 E.02092
G1 X125.562 Y210.665 E.01629
G1 X127.149 Y212.253 E.1611
G1 X127.149 Y213.066 E.05837
G1 X124.981 Y210.898 E.22
G1 X124.804 Y210.879 E.0128
G1 X124.589 Y210.78 E.017
G1 X122.789 Y209.519 E.15769
G1 X127.149 Y213.88 E.44249
G1 X127.149 Y214.693 E.05837
G1 X120.851 Y208.394 E.63914
G1 X120.851 Y209.208 E.05837
G1 X127.149 Y215.507 E.63914
G1 X127.149 Y216.32 E.05837
G1 X120.851 Y210.021 E.63914
G1 X120.851 Y210.835 E.05837
G1 X127.149 Y217.134 E.63914
G1 X127.149 Y217.948 E.05837
G1 X120.851 Y211.649 E.63914
G1 X120.851 Y212.462 E.05837
G1 X127.149 Y218.761 E.63914
G1 X127.149 Y219.575 E.05837
G1 X120.851 Y213.276 E.63914
G1 X120.851 Y214.089 E.05837
G1 X127.149 Y220.388 E.63914
G1 X127.149 Y221.202 E.05837
G1 X120.851 Y214.903 E.63914
G1 X120.851 Y215.716 E.05837
G1 X127.149 Y222.015 E.63914
G1 X127.149 Y222.829 E.05837
G1 X120.851 Y216.53 E.63914
G1 X120.851 Y217.343 E.05837
G1 X127.149 Y223.642 E.63914
G1 X127.149 Y224.456 E.05837
G1 X120.851 Y218.157 E.63914
G1 X120.851 Y218.97 E.05837
G1 X127.149 Y225.269 E.63914
G1 X127.149 Y226.083 E.05837
G1 X120.851 Y219.784 E.63914
G1 X120.851 Y220.597 E.05837
G1 X127.149 Y226.896 E.63914
G1 X127.149 Y227.71 E.05837
G1 X120.851 Y221.411 E.63914
G1 X120.851 Y222.224 E.05837
G1 X127.149 Y228.523 E.63914
G1 X127.149 Y229.337 E.05837
G1 X120.851 Y223.038 E.63914
G1 X120.851 Y223.851 E.05837
G1 X127.149 Y230.15 E.63914
G1 X127.149 Y230.964 E.05837
G1 X120.851 Y224.665 E.63914
G1 X120.851 Y225.478 E.05837
G1 X127.149 Y231.777 E.63914
G1 X127.149 Y232.591 E.05837
G1 X120.851 Y226.292 E.63914
G1 X120.851 Y227.106 E.05837
G1 X127.149 Y233.404 E.63914
G1 X127.149 Y234.218 E.05837
G1 X120.851 Y227.919 E.63914
G1 X120.851 Y228.733 E.05837
G1 X127.149 Y235.032 E.63914
G1 X127.149 Y235.845 E.05837
G1 X120.851 Y229.546 E.63914
G1 X120.851 Y230.36 E.05837
G1 X127.149 Y236.659 E.63914
G1 X127.149 Y237.472 E.05837
G1 X120.851 Y231.173 E.63914
G1 X120.851 Y231.987 E.05837
G1 X127.149 Y238.286 E.63914
G1 X127.149 Y239.099 E.05837
G1 X120.851 Y232.8 E.63914
G1 X120.851 Y233.614 E.05837
G1 X126.386 Y239.149 E.5617
G1 X125.573 Y239.149 E.05837
G1 X120.851 Y234.427 E.47916
G1 X120.851 Y235.241 E.05837
G1 X124.759 Y239.149 E.39661
G1 X123.946 Y239.149 E.05837
G1 X120.851 Y236.054 E.31406
G1 X120.851 Y236.868 E.05837
G1 X123.132 Y239.149 E.23152
G1 X122.319 Y239.149 E.05837
G1 X120.851 Y237.681 E.14897
G1 X120.851 Y238.495 E.05837
G1 X121.76 Y239.404 E.09225
G1 E-2.8 F2400
;WIPE_START
G1 F7200
G1 X120.851 Y238.495 E-.40716
G1 X120.851 Y237.681 E-.25762
G1 X121.912 Y238.742 E-.47523
;WIPE_END
G1 E-.06 F2400
G1 X239.404 Y121.741 F9000
G1 E4 F2400
;WIDTH:0.630855
G1 F1200
G1 X238.513 Y120.851 E.08899
G1 X237.712 Y120.851 E.0566
G1 X239.149 Y122.288 E.14361
G1 X239.149 Y123.089 E.0566
G1 X236.911 Y120.851 E.22366
G1 X236.11 Y120.851 E.0566
G1 X239.149 Y123.89 E.3037
G1 X239.149 Y124.691 E.0566
G1 X235.309 Y120.851 E.38375
G1 X234.508 Y120.851 E.0566
G1 X239.149 Y125.492 E.4638
G1 X239.149 Y126.293 E.0566
G1 X233.707 Y120.851 E.54384
G1 X232.906 Y120.851 E.0566
G1 X239.149 Y127.094 E.62389
G1 X239.149 Y127.149 E.00389
G1 X238.403 Y127.149 E.05271
G1 X232.104 Y120.851 E.62939
G1 X231.303 Y120.851 E.0566
G1 X237.602 Y127.149 E.62939
G1 X236.801 Y127.149 E.0566
G1 X230.502 Y120.851 E.62939
G1 X229.701 Y120.851 E.0566
G1 X236 Y127.149 E.62939
G1 X235.199 Y127.149 E.0566
G1 X228.9 Y120.851 E.62939
G1 X228.099 Y120.851 E.0566
G1 X234.398 Y127.149 E.62939
G1 X233.597 Y127.149 E.0566
G1 X227.298 Y120.851 E.62939
G1 X226.497 Y120.851 E.0566
G1 X232.796 Y127.149 E.62939
G1 X231.995 Y127.149 E.0566
G1 X225.696 Y120.851 E.62939
G1 X224.894 Y120.851 E.0566
G1 X231.193 Y127.149 E.62939
G1 X230.392 Y127.149 E.0566
G1 X224.093 Y120.851 E.62939
G1 X223.292 Y120.851 E.0566
G1 X229.591 Y127.149 E.62939
G1 X228.79 Y127.149 E.0566
G1 X222.491 Y120.851 E.62939
G1 X221.69 Y120.851 E.0566
G1 X227.989 Y127.149 E.62939
G1 X227.188 Y127.149 E.0566
G1 X220.889 Y120.851 E.62939
G1 X220.088 Y120.851 E.0566
G1 X226.387 Y127.149 E.62939
G1 X225.586 Y127.149 E.0566
G1 X219.287 Y120.851 E.62939
G1 X218.485 Y120.851 E.0566
G1 X224.784 Y127.149 E.62939
G1 X223.983 Y127.149 E.0566
G1 X217.684 Y120.851 E.62939
G1 X216.883 Y120.851 E.0566
G1 X223.182 Y127.149 E.62939
G1 X222.381 Y127.149 E.0566
G1 X216.082 Y120.851 E.62939
G1 X215.281 Y120.851 E.0566
G1 X221.58 Y127.149 E.62939
G1 X220.779 Y127.149 E.0566
G1 X214.48 Y120.851 E.62939
G1 X213.679 Y120.851 E.0566
G1 X219.978 Y127.149 E.62939
G1 X219.177 Y127.149 E.0566
G1 X212.878 Y120.851 E.62939
G1 X212.077 Y120.851 E.0566
G1 X218.376 Y127.149 E.62939
G1 X217.574 Y127.149 E.0566
G1 X211.275 Y120.851 E.62939
G1 X210.474 Y120.851 E.0566
G1 X216.773 Y127.149 E.62939
G1 X215.972 Y127.149 E.0566
G1 X209.673 Y120.851 E.62939
G1 X208.872 Y120.851 E.0566
G1 X215.171 Y127.149 E.62939
G1 X214.37 Y127.149 E.0566
G1 X208.071 Y120.851 E.62939
G1 X207.565 Y120.851 E.03578
G1 X207.443 Y121.024 E.01495
G1 X213.569 Y127.149 E.61208
G1 X212.768 Y127.149 E.0566
G1 X207.113 Y121.495 E.56499
G1 X206.783 Y121.966 E.04064
G1 X211.967 Y127.149 E.51791
G1 X211.166 Y127.149 E.0566
G1 X206.453 Y122.437 E.47083
G1 X206.123 Y122.909 E.04064
G1 X210.364 Y127.149 E.42375
G1 X209.563 Y127.149 E.0566
G1 X205.794 Y123.38 E.37667
G1 X205.464 Y123.851 E.04064
G1 X208.762 Y127.149 E.32959
G1 X207.961 Y127.149 E.0566
G1 X205.134 Y124.322 E.28251
G1 X204.804 Y124.793 E.04064
G1 X207.16 Y127.149 E.23543
G1 X206.359 Y127.149 E.0566
G1 X204.474 Y125.264 E.18835
G1 X204.268 Y125.558 E.02535
G1 X204.11 Y125.701 E.01508
G1 X205.558 Y127.149 E.14469
G1 X204.757 Y127.149 E.0566
G1 X203.458 Y125.851 E.12979
G1 X202.656 Y125.851 E.0566
G1 X203.955 Y127.149 E.12979
G1 X203.154 Y127.149 E.0566
G1 X201.855 Y125.851 E.12979
G1 X201.054 Y125.851 E.0566
G1 X202.353 Y127.149 E.12979
G1 X201.552 Y127.149 E.0566
G1 X200.253 Y125.851 E.12979
G1 X199.452 Y125.851 E.0566
G1 X200.751 Y127.149 E.12979
G1 X199.95 Y127.149 E.0566
G1 X198.651 Y125.851 E.12979
G1 X197.85 Y125.851 E.0566
G1 X199.149 Y127.149 E.12979
G1 X198.348 Y127.149 E.0566
G1 X196.794 Y125.596 E.15523
G1 E-2.8 F2400
;WIPE_START
G1 F7200
G1 X198.348 Y127.149 E-.69572
G1 X199.149 Y127.149 E-.25369
G1 X198.723 Y126.724 E-.19059
;WIPE_END
G1 E-.06 F2400
G1 X193.513 Y122.315 F9000
G1 E4 F2400
G1 F1200
G1 X192.049 Y120.851 E.14631
G1 X191.248 Y120.851 E.0566
G1 X194.348 Y123.951 E.30976
G1 X195.473 Y125.558 E.13867
G1 X195.702 Y125.764 E.02172
G1 X196.032 Y125.851 E.02415
G1 X196.248 Y125.851 E.0152
G1 X197.547 Y127.149 E.12979
G1 X196.745 Y127.149 E.0566
G1 X190.446 Y120.851 E.62939
G1 X189.645 Y120.851 E.0566
G1 X195.944 Y127.149 E.62939
G1 X195.143 Y127.149 E.0566
G1 X188.844 Y120.851 E.62939
G1 X188.043 Y120.851 E.0566
G1 X194.342 Y127.149 E.62939
G1 X193.541 Y127.149 E.0566
G1 X187.242 Y120.851 E.62939
G1 X186.441 Y120.851 E.0566
G1 X192.74 Y127.149 E.62939
G1 X191.939 Y127.149 E.0566
G1 X185.64 Y120.851 E.62939
G1 X184.839 Y120.851 E.0566
G1 X191.138 Y127.149 E.62939
G1 X190.337 Y127.149 E.0566
G1 X184.038 Y120.851 E.62939
G1 X183.236 Y120.851 E.0566
G1 X189.535 Y127.149 E.62939
G1 X188.734 Y127.149 E.0566
G1 X182.435 Y120.851 E.62939
G1 X181.634 Y120.851 E.0566
G1 X186.433 Y125.649 E.47951
G1 X185.632 Y125.649 E.0566
G1 X180.833 Y120.851 E.47951
G1 X180.032 Y120.851 E.0566
G1 X184.831 Y125.649 E.47951
G1 X184.03 Y125.649 E.0566
G1 X179.231 Y120.851 E.47951
G1 X178.43 Y120.851 E.0566
G1 X183.229 Y125.649 E.47951
G1 X182.428 Y125.649 E.0566
G1 X177.629 Y120.851 E.47951
G1 X176.828 Y120.851 E.0566
G1 X181.626 Y125.649 E.47951
G1 X181.435 Y125.649 E.01355
G1 X181.251 Y125.675 E.01314
G1 X181.077 Y125.75 E.01338
G1 X180.992 Y125.816 E.00759
G1 X176.026 Y120.851 E.49614
G1 X175.225 Y120.851 E.0566
G1 X180.586 Y126.211 E.53564
G1 X180.185 Y126.612 E.04002
G1 X174.424 Y120.851 E.57566
G1 X173.623 Y120.851 E.0566
G1 X179.785 Y127.012 E.61569
G1 X179.648 Y127.149 E.0137
G1 X179.121 Y127.149 E.03722
G1 X172.822 Y120.851 E.62939
G1 X172.021 Y120.851 E.0566
G1 X178.32 Y127.149 E.62939
G1 X177.519 Y127.149 E.0566
G1 X171.22 Y120.851 E.62939
G1 X170.419 Y120.851 E.0566
G1 X176.718 Y127.149 E.62939
G1 X175.916 Y127.149 E.0566
G1 X169.617 Y120.851 E.62939
G1 X168.816 Y120.851 E.0566
G1 X175.115 Y127.149 E.62939
G1 X174.314 Y127.149 E.0566
G1 X168.015 Y120.851 E.62939
G1 X167.214 Y120.851 E.0566
G1 X173.513 Y127.149 E.62939
G1 X172.712 Y127.149 E.0566
G1 X166.413 Y120.851 E.62939
G1 X165.612 Y120.851 E.0566
G1 X171.911 Y127.149 E.62939
G1 X171.11 Y127.149 E.0566
G1 X164.811 Y120.851 E.62939
G1 X164.01 Y120.851 E.0566
G1 X170.309 Y127.149 E.62939
G1 X169.508 Y127.149 E.0566
G1 X163.209 Y120.851 E.62939
G1 X162.407 Y120.851 E.0566
G1 X168.706 Y127.149 E.62939
G1 X167.905 Y127.149 E.0566
G1 X161.606 Y120.851 E.62939
G1 X160.805 Y120.851 E.0566
G1 X167.104 Y127.149 E.62939
G1 X166.303 Y127.149 E.0566
G1 X160.004 Y120.851 E.62939
G1 X159.203 Y120.851 E.0566
G1 X165.502 Y127.149 E.62939
G1 X164.701 Y127.149 E.0566
G1 X158.402 Y120.851 E.62939
G1 X157.601 Y120.851 E.0566
G1 X163.9 Y127.149 E.62939
G1 X163.099 Y127.149 E.0566
G1 X156.8 Y120.851 E.62939
G1 X155.999 Y120.851 E.0566
G1 X162.297 Y127.149 E.62939
G1 X161.496 Y127.149 E.0566
G1 X155.197 Y120.851 E.62939
G1 X154.555 Y120.851 E.04535
G1 X154.927 Y121.382 E.04581
G1 X160.695 Y127.149 E.57633
G1 X159.894 Y127.149 E.0566
G1 X156.798 Y124.054 E.30932
G1 X157.173 Y124.589 E.04615
G1 X157.273 Y124.804 E.01674
G1 X157.297 Y125.029 E.01603
G1 X157.228 Y125.284 E.01866
G1 X159.093 Y127.149 E.18636
G1 X158.292 Y127.149 E.0566
G1 X156.883 Y125.741 E.14078
G1 X156.636 Y125.839 E.01877
G1 X156.192 Y125.851 E.03143
G1 X157.491 Y127.149 E.12979
G1 X156.69 Y127.149 E.0566
G1 X155.391 Y125.851 E.12979
G1 X154.59 Y125.851 E.0566
G1 X155.889 Y127.149 E.12979
G1 X155.087 Y127.149 E.0566
G1 X153.788 Y125.851 E.12979
G1 X152.987 Y125.851 E.0566
G1 X154.286 Y127.149 E.12979
G1 X153.485 Y127.149 E.0566
G1 X152.186 Y125.851 E.12979
G1 X151.385 Y125.851 E.0566
G1 X152.684 Y127.149 E.12979
G1 X151.883 Y127.149 E.0566
G1 X150.329 Y125.596 E.15523
G1 E-2.8 F2400
;WIPE_START
G1 F7200
G1 X151.883 Y127.149 E-.69572
G1 X152.684 Y127.149 E-.25369
G1 X152.259 Y126.724 E-.19059
;WIPE_END
G1 E-.06 F2400
G1 X151.756 Y121.415 F9000
G1 E4 F2400
G1 F1200
G1 X151.192 Y120.851 E.05635
G1 X150.391 Y120.851 E.0566
G1 X151.244 Y121.704 E.08525
G1 X150.915 Y122.176 E.04066
G1 X149.59 Y120.851 E.13241
G1 X148.788 Y120.851 E.0566
G1 X150.586 Y122.648 E.17957
G1 X150.257 Y123.12 E.04066
G1 X147.987 Y120.851 E.22674
G1 X147.186 Y120.851 E.0566
G1 X149.927 Y123.592 E.2739
G1 X149.598 Y124.064 E.04066
G1 X146.385 Y120.851 E.32106
G1 X145.584 Y120.851 E.0566
