; generated by SuperSlicer 2.5.59 on 2023-01-04 at 03:00:56 UTC

; 

; external perimeters extrusion width = 0.65mm
; perimeters extrusion width = 0.73mm
; infill extrusion width = 0.70mm
; solid infill extrusion width = 0.73mm
; top infill extrusion width = 0.70mm
; first layer extrusion width = 0.88mm

; object:{"name":"square_tower","id":"square_tower.stl id:0 copy 0","object_center":[180.000000,180.000000,0.000000],"boundingbox_center":[180.000000,180.000000,25.000000],"boundingbox_size":[66.000000,65.945206,50.000000]}
; plater:{"center":[180.000000,180.000000,0.000000],"boundingbox_center":[180.000000,180.000000,25.000000],"boundingbox_size":[66.000000,65.945206,50.000000]}

;TYPE:Custom
G90 ; use absolute coordinates
M83 ; extruder relative mode
M140 S60 ; set final bed temp
M104 S150 ; set temporary nozzle temp to prevent oozing during homing and auto bed leveling
M190 S60 ; wait for bed temp to stabilize
G28 ; home all axis
G29 ; auto bed levelling
G1 Z50 F240
G1 X2 Y10 F3000
M104 S205 ; set final nozzle temp
M109 S205 ; wait for nozzle temp to stabilize
G1 Z0.28 F240
G92 E0
G1 Y140 E10 F1500 ; prime the nozzle
G1 X2.3 F5000
G92 E0
G1 Y10 E10 F1200 ; prime the nozzle
G92 E0
M107
G21 ; set units to millimeters
G90 ; use absolute coordinates
M82 ; use absolute distances for extrusion
G92 E0
; Filament gcode
;_TOOLCHANGE 0
M107
;LAYER_CHANGE
;Z:0.2
;HEIGHT:0.2
;BEFORE_LAYER_CHANGE
;0.2


G1 E-3 F3600
G1 Z0.2 F9000
;AFTER_LAYER_CHANGE
;0.2
G92 E0
M204 S500
G1 X146.692 Y145.583
G1 E3 F2400
;TYPE:Skirt
;WIDTH:0.72
G1 F1200
G1 X145.474 Y146.827 E3.09801
G1 X144.541 Y148.297 E3.19602
G1 X144.257 Y148.935 E3.23532
G1 X143.789 Y150.611 E3.33333
G1 X143.661 Y152 E3.41184
G1 X143.661 Y208 E6.5646
G1 X143.934 Y210.071 E6.68222
G1 X144.541 Y211.703 E6.78024
G1 X145.474 Y213.173 E6.87824
G1 X146.692 Y214.417 E6.97626
G1 X148.142 Y215.38 E7.07426
G1 X149.097 Y215.805 E7.13311
G1 X149.761 Y216.021 E7.17242
G1 X151.477 Y216.311 E7.27043
G1 X208.523 Y216.311 E10.48204
G1 X210.239 Y216.021 E10.58005
G1 X211.858 Y215.38 E10.67808
G1 X213.308 Y214.417 E10.77608
G1 X214.526 Y213.173 E10.8741
G1 X214.936 Y212.608 E10.9134
G1 X215.743 Y211.065 E11.0114
G1 X216.211 Y209.389 E11.10941
G1 X216.339 Y208 E11.18792
G1 X216.32 Y151.651 E14.36034
G1 X216.066 Y149.929 E14.45835
G1 X215.459 Y148.297 E14.55636
G1 X214.936 Y147.392 E14.6152
G1 X213.827 Y146.05 E14.71322
G1 X213.308 Y145.583 E14.75252
G1 X211.858 Y144.62 E14.85053
G1 X210.239 Y143.979 E14.94855
G1 X209.217 Y143.762 E15.0074
G1 X208.523 Y143.689 E15.04669
G1 X151.477 Y143.689 E18.2583
G1 X149.761 Y143.979 E18.35632
G1 X148.142 Y144.62 E18.45433
G1 X146.767 Y145.534 E18.54728
G92 E0
G1 E-2.1 F3600
;WIPE_START
G1 F7200
G1 X145.494 Y146.807 E-2.955
;WIPE_END
G1 E-3 F3600
; printing object square_tower.stl id:0 copy 0
; acceleration to travel
M204 S1500
G1 X154.626 Y150.64 F9000
; decel to extrusion
M204 S500
G1 X155.742 Y151.109
; end travel
G1 E0 F2400
;TYPE:Internal perimeter
;WIDTH:0.833079
G1 F1200
G1 X156.092 Y151.3 E0.02622
G1 X156.508 Y151.371 E0.05394
G1 X203.492 Y151.371 E3.14088
G1 X203.908 Y151.3 E3.1686
G1 X204.258 Y151.109 E3.19483
G1 X204.578 Y150.739 E3.22696
G1 X205.073 Y149.868 E3.29279
G1 X205.577 Y149.309 E3.34221
G1 X206.189 Y148.864 E3.39196
G1 X206.881 Y148.556 E3.4417
G1 X207.622 Y148.398 E3.49144
G1 X208.378 Y148.398 E3.54118
G1 X209.119 Y148.556 E3.59092
G1 X209.811 Y148.864 E3.64066
G1 X210.423 Y149.309 E3.69041
G1 X210.93 Y149.871 E3.74014
G1 X211.308 Y150.527 E3.78988
G1 X211.542 Y151.247 E3.83963
G1 X211.621 Y152 E3.88937
G1 X211.542 Y152.753 E3.93911
G1 X211.308 Y153.473 E3.98885
G1 X210.93 Y154.129 E4.03859
G1 X210.423 Y154.691 E4.08833
G1 X209.811 Y155.136 E4.13807
G1 X209.144 Y155.463 E4.18683
G1 X208.882 Y155.72 E4.21101
G1 X208.697 Y156.066 E4.23676
G1 X208.629 Y156.474 E4.26391
G1 X208.629 Y203.526 E7.35534
G1 X208.697 Y203.934 E7.38249
G1 X208.882 Y204.28 E7.40824
G1 X209.144 Y204.537 E7.43242
G1 X209.811 Y204.864 E7.48118
G1 X210.423 Y205.309 E7.53092
G1 X210.93 Y205.871 E7.58066
G1 X211.308 Y206.527 E7.6304
G1 X211.542 Y207.247 E7.68014
G1 X211.621 Y208 E7.72988
G1 X211.542 Y208.753 E7.77962
G1 X211.308 Y209.473 E7.82936
G1 X210.93 Y210.129 E7.8791
G1 X210.423 Y210.691 E7.92884
G1 X209.811 Y211.136 E7.97859
G1 X209.119 Y211.444 E8.02833
G1 X208.379 Y211.602 E8.07807
G1 X207.621 Y211.602 E8.12781
G1 X206.881 Y211.444 E8.17755
G1 X206.189 Y211.136 E8.22729
G1 X205.577 Y210.691 E8.27704
G1 X205.073 Y210.132 E8.32647
G1 X204.578 Y209.261 E8.39229
G1 X204.258 Y208.891 E8.42442
G1 X203.908 Y208.7 E8.45065
G1 X203.492 Y208.629 E8.47837
G1 X156.508 Y208.629 E11.56531
G1 X156.092 Y208.7 E11.59303
G1 X155.742 Y208.891 E11.61925
G1 X155.422 Y209.261 E11.65139
G1 X154.927 Y210.132 E11.71721
G1 X154.423 Y210.691 E11.76664
G1 X153.811 Y211.136 E11.81638
G1 X153.119 Y211.444 E11.86612
G1 X152.379 Y211.602 E11.91586
G1 X151.621 Y211.602 E11.9656
G1 X150.881 Y211.444 E12.01534
G1 X150.189 Y211.136 E12.06508
G1 X149.577 Y210.691 E12.11483
G1 X149.07 Y210.129 E12.16457
G1 X148.692 Y209.473 E12.21431
G1 X148.458 Y208.753 E12.26405
G1 X148.379 Y208 E12.31379
G1 X148.458 Y207.247 E12.36353
G1 X148.692 Y206.527 E12.41327
G1 X149.07 Y205.871 E12.46301
G1 X149.577 Y205.309 E12.51275
G1 X150.189 Y204.864 E12.56249
G1 X150.856 Y204.537 E12.61125
G1 X151.118 Y204.28 E12.63543
G1 X151.303 Y203.934 E12.66118
G1 X151.371 Y203.526 E12.68833
G1 X151.371 Y156.474 E15.77976
G1 X151.303 Y156.066 E15.80691
G1 X151.118 Y155.72 E15.83266
G1 X150.856 Y155.463 E15.85684
G1 X150.189 Y155.136 E15.9056
G1 X149.577 Y154.691 E15.95534
G1 X149.07 Y154.129 E16.00508
G1 X148.692 Y153.473 E16.05482
G1 X148.458 Y152.753 E16.10456
G1 X148.413 Y152.33 E16.13253
G1 X148.379 Y152 E16.1543
G1 X148.458 Y151.247 E16.20404
G1 X148.692 Y150.527 E16.25378
G1 X149.07 Y149.871 E16.30353
G1 X149.577 Y149.309 E16.35327
G1 X150.189 Y148.864 E16.40301
G1 X150.881 Y148.556 E16.45275
G1 X151.621 Y148.398 E16.50249
G1 X152.379 Y148.398 E16.55223
G1 X153.119 Y148.556 E16.60197
G1 X153.811 Y148.864 E16.65171
G1 X154.423 Y149.309 E16.70145
G1 X154.927 Y149.868 E16.75088
G1 X155.422 Y150.739 E16.81671
G1 X155.683 Y151.041 E16.84293
G1 X156.253 Y150.451 F9000
;TYPE:External perimeter
G1 F1200
G1 X156.508 Y150.538 E16.86067
G1 X203.492 Y150.538 E19.94761
G1 X203.564 Y150.532 E19.95235
G1 X203.747 Y150.451 E19.96553
G1 X203.854 Y150.327 E19.97625
G1 X204.394 Y149.378 E20.04801
G1 X205.016 Y148.686 E20.10913
G1 X205.77 Y148.138 E20.17038
G1 X206.622 Y147.759 E20.23163
G1 X207.534 Y147.565 E20.29288
G1 X208.466 Y147.565 E20.35412
G1 X209.378 Y147.759 E20.41537
G1 X210.23 Y148.138 E20.47662
G1 X210.984 Y148.686 E20.53787
G1 X211.607 Y149.379 E20.59911
G1 X212.074 Y150.186 E20.66036
G1 X212.362 Y151.073 E20.7216
G1 X212.459 Y152 E20.78285
G1 X212.362 Y152.927 E20.8441
G1 X212.074 Y153.814 E20.90535
G1 X211.607 Y154.621 E20.96659
G1 X210.984 Y155.314 E21.02784
G1 X210.23 Y155.862 E21.08909
G1 X209.709 Y156.093 E21.12651
G1 X209.546 Y156.223 E21.14018
G1 X209.462 Y156.474 E21.15758
G1 X209.462 Y203.526 E24.24901
G1 X209.546 Y203.777 E24.26642
G1 X209.709 Y203.907 E24.28009
G1 X210.23 Y204.138 E24.31751
G1 X210.984 Y204.686 E24.37876
G1 X211.607 Y205.379 E24.44001
G1 X212.074 Y206.186 E24.50125
G1 X212.362 Y207.073 E24.56249
G1 X212.459 Y208 E24.62374
G1 X212.362 Y208.927 E24.68499
G1 X212.074 Y209.814 E24.74624
G1 X211.607 Y210.621 E24.80748
G1 X210.984 Y211.314 E24.86873
G1 X210.23 Y211.862 E24.92998
G1 X209.378 Y212.241 E24.99122
G1 X208.466 Y212.435 E25.05247
G1 X207.534 Y212.435 E25.11372
G1 X206.622 Y212.241 E25.17497
G1 X205.77 Y211.862 E25.23621
G1 X205.016 Y211.314 E25.29746
G1 X204.394 Y210.622 E25.35859
G1 X203.854 Y209.673 E25.43035
G1 X203.747 Y209.549 E25.44106
G1 X203.492 Y209.462 E25.4588
G1 X156.508 Y209.462 E28.54574
G1 X156.436 Y209.468 E28.55048
G1 X156.253 Y209.549 E28.56366
G1 X156.146 Y209.673 E28.57437
G1 X155.606 Y210.622 E28.64614
G1 X154.984 Y211.314 E28.70726
G1 X154.23 Y211.862 E28.76851
G1 X153.378 Y212.241 E28.82976
G1 X152.466 Y212.435 E28.891
G1 X151.534 Y212.435 E28.95225
G1 X150.622 Y212.241 E29.0135
G1 X149.77 Y211.862 E29.07474
G1 X149.016 Y211.314 E29.13599
G1 X148.393 Y210.621 E29.19724
G1 X147.926 Y209.814 E29.25848
G1 X147.638 Y208.927 E29.31973
G1 X147.541 Y208 E29.38098
G1 X147.638 Y207.073 E29.44223
G1 X147.926 Y206.186 E29.50347
G1 X148.393 Y205.379 E29.56471
G1 X149.016 Y204.686 E29.62596
G1 X149.77 Y204.138 E29.68721
G1 X150.291 Y203.907 E29.72463
G1 X150.454 Y203.777 E29.7383
G1 X150.538 Y203.526 E29.75571
G1 X150.538 Y156.474 E32.84714
G1 X150.454 Y156.223 E32.86454
G1 X150.291 Y156.093 E32.87821
G1 X149.77 Y155.862 E32.91563
G1 X149.016 Y155.314 E32.97688
G1 X148.393 Y154.621 E33.03813
G1 X147.926 Y153.814 E33.09938
G1 X147.638 Y152.927 E33.16062
G1 X147.585 Y152.417 E33.19435
G1 X147.541 Y152 E33.22187
G1 X147.638 Y151.073 E33.28312
G1 X147.926 Y150.186 E33.34436
G1 X148.393 Y149.379 E33.40561
G1 X149.016 Y148.686 E33.46686
G1 X149.77 Y148.138 E33.5281
G1 X150.622 Y147.759 E33.58935
G1 X151.534 Y147.565 E33.6506
G1 X152.466 Y147.565 E33.71184
G1 X153.378 Y147.759 E33.77309
G1 X154.23 Y148.138 E33.83434
G1 X154.984 Y148.686 E33.89558
G1 X155.606 Y149.378 E33.95671
G1 X156.146 Y150.327 E34.02847
G1 X156.194 Y150.382 E34.03327
;WIPE_START
G1 X156.263 Y151.05 F9000
;WIPE_END
G92 E0
G1 E-2.1 F3600
;WIPE_START
G1 F7200
G1 X158.063 Y151.042 E-2.955
;WIPE_END
G1 E-3 F3600
; acceleration to travel
M204 S1500
G1 X154.281 Y153.904 F9000
; decel to extrusion
M204 S500
G1 X153.819 Y154.254
; end travel
G1 E0 F2400
;TYPE:Internal perimeter
G1 F1200
G1 X153.683 Y154.515 E0.01931
G1 X153.629 Y154.879 E0.04349
G1 X153.629 Y173.996 E1.29954
G1 X153.392 Y174.112 E1.3169
G1 X153.2 Y174.463 E1.34313
G1 X153.129 Y174.879 E1.37087
G1 X153.129 Y177.121 E1.51823
G1 X153.2 Y177.538 E1.54596
G1 X153.392 Y177.888 E1.5722
G1 X153.629 Y178.004 E1.58956
G1 X153.629 Y205.121 E3.37122
G1 X153.683 Y205.485 E3.3954
G1 X153.785 Y205.726 E3.41255
G1 X154.016 Y206.025 E3.43739
G1 X154.399 Y206.275 E3.46745
G1 X154.879 Y206.371 E3.49959
G1 X177.996 Y206.371 E5.01845
G1 X178.112 Y206.608 E5.03581
G1 X178.462 Y206.8 E5.06204
G1 X178.879 Y206.871 E5.08978
G1 X181.121 Y206.871 E5.23714
G1 X181.538 Y206.8 E5.26487
G1 X181.888 Y206.608 E5.29111
G1 X182.004 Y206.371 E5.30847
G1 X204.307 Y206.371 E6.77379
G1 X205.394 Y206.341 E6.84528
G1 X205.811 Y206.164 E6.875
G1 X206.105 Y205.892 E6.9013
G1 X206.317 Y205.485 E6.93145
G1 X206.371 Y205.121 E6.95563
G1 X206.371 Y182.004 E8.47449
G1 X206.608 Y181.888 E8.49185
G1 X206.8 Y181.538 E8.51808
G1 X206.871 Y181.121 E8.54582
G1 X206.871 Y178.879 E8.69318
G1 X206.8 Y178.463 E8.72091
G1 X206.608 Y178.112 E8.74715
G1 X206.371 Y177.996 E8.76451
G1 X206.371 Y154.879 E10.28336
G1 X206.317 Y154.515 E10.30754
G1 X206.215 Y154.274 E10.32469
G1 X205.984 Y153.975 E10.34952
G1 X205.601 Y153.725 E10.3796
G1 X205.121 Y153.629 E10.41173
G1 X182.004 Y153.629 E11.93059
G1 X181.888 Y153.392 E11.94795
G1 X181.538 Y153.2 E11.97418
G1 X181.121 Y153.129 E12.00192
G1 X178.879 Y153.129 E12.14928
G1 X178.462 Y153.2 E12.17701
G1 X178.112 Y153.392 E12.20325
G1 X177.996 Y153.629 E12.22061
G1 X155.693 Y153.629 E13.68593
G1 X154.606 Y153.659 E13.75742
G1 X154.189 Y153.836 E13.78714
G1 X153.895 Y154.108 E13.81344
G1 X153.86 Y154.174 E13.81837
G1 X154.543 Y154.631 F9000
;TYPE:External perimeter
G1 F1200
G1 X154.462 Y154.879 E13.83547
G1 X154.462 Y174.462 E15.12215
G1 X154.379 Y174.462 E15.12763
G1 X154.05 Y174.623 E15.15169
G1 X153.986 Y174.74 E15.16044
G1 X153.962 Y174.879 E15.16968
G1 X153.962 Y177.121 E15.31705
G1 X153.968 Y177.193 E15.3218
G1 X154.05 Y177.377 E15.33498
G1 X154.379 Y177.538 E15.35905
G1 X154.462 Y177.538 E15.36453
G1 X154.462 Y205.121 E17.17682
G1 X154.514 Y205.323 E17.19049
G1 X154.637 Y205.461 E17.20262
G1 X154.879 Y205.538 E17.21929
G1 X178.462 Y205.538 E18.76877
G1 X178.462 Y205.621 E18.77425
G1 X178.623 Y205.95 E18.79832
G1 X178.879 Y206.038 E18.81606
G1 X181.121 Y206.038 E18.96343
G1 X181.193 Y206.032 E18.96818
G1 X181.377 Y205.95 E18.98136
G1 X181.538 Y205.621 E19.00543
G1 X181.538 Y205.538 E19.01091
G1 X205.121 Y205.538 E20.56039
G1 X205.281 Y205.506 E20.5711
G1 X205.457 Y205.369 E20.58573
G1 X205.538 Y205.121 E20.60284
G1 X205.538 Y181.538 E22.15232
G1 X205.621 Y181.538 E22.1578
G1 X205.95 Y181.377 E22.18187
G1 X206.014 Y181.26 E22.19061
G1 X206.038 Y181.121 E22.19986
G1 X206.038 Y178.879 E22.34722
G1 X205.95 Y178.623 E22.36497
G1 X205.621 Y178.462 E22.38903
G1 X205.538 Y178.462 E22.39452
G1 X205.538 Y154.879 E23.944
G1 X205.486 Y154.677 E23.95766
G1 X205.363 Y154.539 E23.9698
G1 X205.121 Y154.462 E23.98647
G1 X181.538 Y154.462 E25.53595
G1 X181.538 Y154.379 E25.54143
G1 X181.377 Y154.05 E25.5655
G1 X181.121 Y153.962 E25.58324
G1 X178.879 Y153.962 E25.73061
G1 X178.807 Y153.968 E25.73535
G1 X178.623 Y154.05 E25.74854
G1 X178.462 Y154.379 E25.77261
G1 X178.462 Y154.462 E25.77809
G1 X154.879 Y154.462 E27.32757
G1 X154.719 Y154.494 E27.33828
G1 X154.614 Y154.576 E27.347
;WIPE_START
G1 X154.848 Y155.148 F9000
;WIPE_END
G92 E0
G1 E-2.1 F3600
;WIPE_START
G1 F7200
G1 X154.784 Y156.947 E-2.955
;WIPE_END
G1 E-3 F3600
; acceleration to travel
M204 S1500
G1 X205.044 Y151.607 F9000
; decel to extrusion
M204 S500
G1 X211.185 Y150.955
; end travel
G1 E0 F2400
;TYPE:Solid infill
;WIDTH:0.856653
G1 F1200
G1 X209.936 Y149.707 E0.11959
G1 X209.505 Y149.393 E0.1557
G1 X208.93 Y149.137 E0.19832
G1 X208.315 Y149.007 E0.24095
G1 X208.058 Y149.007 E0.25834
G1 X211.005 Y151.954 E0.54066
G1 X211.01 Y152 E0.54382
G1 X210.944 Y152.626 E0.58644
G1 X210.835 Y152.962 E0.61037
G1 X207.029 Y149.156 E0.97499
G1 X206.495 Y149.393 E1.01458
G1 X206.26 Y149.564 E1.0343
G1 X210.446 Y153.751 E1.43534
G1 X210.435 Y153.769 E1.43679
G1 X210.014 Y154.237 E1.47941
G1 X209.863 Y154.346 E1.49203
G1 X205.652 Y150.135 E1.89552
G1 X205.569 Y150.226 E1.90382
G1 X205.205 Y150.867 E1.95375
G1 X209.118 Y154.779 E2.32857
G1 X208.783 Y154.972 E2.35476
G1 X208.455 Y155.294 E2.3859
G1 X204.692 Y151.531 E2.74634
G1 X204.628 Y151.593 E2.75237
G1 X204.118 Y151.872 E2.79177
G1 X203.909 Y151.927 E2.80637
G1 X205.003 Y153.021 E2.91118
G1 X205.132 Y153.021 E2.91991
G1 X205.525 Y153.064 E2.9467
G1 X205.836 Y153.163 E2.96876
G1 X206.148 Y153.329 E2.99276
G1 X206.474 Y153.604 E3.0216
G1 X206.617 Y153.776 E3.03678
G1 X206.75 Y153.983 E3.05345
G1 X206.901 Y154.341 E3.07978
G1 X206.979 Y154.864 E3.11562
G1 X206.979 Y154.997 E3.12459
G1 X208.392 Y156.41 E3.25994
G1 X206.621 Y155.817 F9000
G1 F1200
G1 X208.021 Y157.216 E3.39405
G1 X208.021 Y158.395 E3.47386
G1 X206.979 Y157.353 E3.57364
G1 X206.979 Y158.531 E3.65345
G1 X208.021 Y159.573 E3.75323
G1 X208.021 Y160.751 E3.83304
G1 X206.979 Y159.709 E3.93283
G1 X206.979 Y160.887 E4.01264
G1 X208.021 Y161.929 E4.11242
G1 X208.021 Y163.107 E4.19223
G1 X206.979 Y162.066 E4.29201
G1 X206.979 Y163.244 E4.37182
G1 X208.021 Y164.285 E4.47161
G1 X208.021 Y165.464 E4.55142
G1 X206.979 Y164.422 E4.6512
G1 X206.979 Y165.6 E4.73101
G1 X208.021 Y166.642 E4.8308
G1 X208.021 Y167.82 E4.9106
G1 X206.979 Y166.778 E5.01039
G1 X206.979 Y167.956 E5.0902
G1 X208.021 Y168.998 E5.18998
G1 X208.021 Y170.176 E5.26979
G1 X206.979 Y169.135 E5.36958
G1 X206.979 Y170.313 E5.44938
G1 X208.021 Y171.354 E5.54917
G1 X208.021 Y172.532 E5.62898
G1 X206.979 Y171.491 E5.72876
G1 X206.979 Y172.669 E5.80857
G1 X208.021 Y173.711 E5.90836
G1 X208.021 Y174.889 E5.98817
G1 X206.979 Y173.847 E6.08795
G1 X206.979 Y175.025 E6.16776
G1 X208.021 Y176.067 E6.26754
G1 X208.021 Y177.245 E6.34735
G1 X206.979 Y176.203 E6.44714
G1 X206.979 Y177.382 E6.52695
G1 X208.021 Y178.423 E6.62673
G1 X208.021 Y179.601 E6.70654
G1 X207.479 Y179.06 E6.75842
G1 X207.479 Y180.238 E6.83823
G1 X208.021 Y180.78 E6.89012
G1 X208.021 Y181.958 E6.96993
G1 X207.456 Y181.393 E7.02401
G1 X207.452 Y181.442 E7.02734
G1 X207.372 Y181.747 E7.04872
G1 X207.111 Y182.226 E7.08564
G1 X208.021 Y183.136 E7.17282
G1 X208.021 Y184.314 E7.25263
G1 X206.979 Y183.272 E7.35241
G1 X206.979 Y184.451 E7.43222
G1 X208.021 Y185.492 E7.53201
G1 X208.021 Y186.67 E7.61182
