; generated by PrusaSlicer 2.5.0+MacOS-arm64 on 2023-01-03 at 04:53:03 UTC

; 

; external perimeters extrusion width = 0.63mm
; perimeters extrusion width = 0.66mm
; infill extrusion width = 0.66mm
; solid infill extrusion width = 0.66mm
; top infill extrusion width = 0.60mm
; first layer extrusion width = 0.63mm

M201 X500 Y500 Z100 E1000 ; sets maximum accelerations, mm/sec^2
M203 X300 Y300 Z5 E60 ; sets maximum feedrates, mm / sec
M204 P500 R1000 T500 ; sets acceleration (P, T) and retract acceleration (R), mm/sec^2
M205 X8.00 Y8.00 Z0.40 E5.00 ; sets the jerk limits, mm/sec
M205 S0 T0 ; sets the minimum extruding and travel feed rate, mm/sec
M107
;TYPE:Custom
G90 ; use absolute coordinates
M83 ; extruder relative mode
M104 S150 ; set temporary nozzle temp to prevent oozing during homing and auto bed leveling
M140 S60 ; set final bed temp
M190 S60 ; wait for bed temp to stabilize
G28 ; home all axis
G1 Z50 F240
G1 X2.0 Y10 F3000
M104 S210 ; set final nozzle temp
M109 S210 ; wait for nozzle temp to stabilize
G1 Z0.28 F240
G92 E0
G1 X2.0 Y140 E10 F1500 ; prime the nozzle
G1 X2.3 Y140 F5000
G92 E0
G1 X2.3 Y10 E10 F1200 ; prime the nozzle
G92 E0
G21 ; set units to millimeters
G90 ; use absolute coordinates
M83 ; use relative distances for extrusion
; Filament gcode
M107
;LAYER_CHANGE
;Z:0.3
;HEIGHT:0.3
;BEFORE_LAYER_CHANGE
G92 E0
;0.3


G1 E-4 F2400
G1 Z.3 F9000
;AFTER_LAYER_CHANGE
;0.3
G1 X146.559 Y145.4
G1 E4 F2400
M204 S500
;TYPE:Skirt/Brim
;WIDTH:0.63
G1 F1200
G1 X148.05 Y144.413 E.12616
G1 X149.714 Y143.757 E.12616
G1 X151.477 Y143.462 E.12616
G1 X208.523 Y143.462 E4.02438
G1 X209.264 Y143.54 E.05258
G1 X210.286 Y143.757 E.07375
G1 X211.95 Y144.413 E.12616
G1 X213.441 Y145.4 E.12616
G1 X213.996 Y145.898 E.0526
G1 X214.695 Y146.675 E.07374
G1 X215.656 Y148.184 E.12616
G1 X216.282 Y149.859 E.12615
G1 X216.546 Y151.627 E.12615
G1 X216.566 Y208 E3.97694
G1 X216.437 Y209.412 E.10006
G1 X215.959 Y211.136 E.12615
G1 X215.133 Y212.722 E.12615
G1 X214.695 Y213.325 E.05259
G1 X213.441 Y214.6 E.12617
G1 X211.95 Y215.587 E.12615
G1 X210.286 Y216.243 E.12618
G1 X208.523 Y216.538 E.12616
G1 X151.477 Y216.538 E4.02438
G1 X149.714 Y216.243 E.12615
G1 X149.005 Y216.013 E.0526
G1 X147.404 Y215.215 E.12615
G1 X146.559 Y214.6 E.07374
G1 X145.305 Y213.325 E.12616
G1 X144.344 Y211.817 E.12615
G1 X143.718 Y210.141 E.12616
G1 X143.563 Y209.412 E.05259
G1 X143.434 Y208 E.10005
G1 X143.434 Y152 E3.95064
G1 X143.563 Y150.588 E.10005
G1 X144.041 Y148.864 E.12616
G1 X144.344 Y148.183 E.05259
G1 X145.305 Y146.675 E.12616
G1 X146.495 Y145.464 E.11981
; printing object square_tower.stl id:0 copy 0
G1 E-2.8 F2400
;WIPE_START
G1 F7200
G1 X148.05 Y144.413 E-.59422
G1 X149.653 Y143.781 E-.54578
;WIPE_END
G1 E-.06 F2400
G1 X155.718 Y150.484 F9000
G1 E4 F2400
;TYPE:Perimeter
;WIDTH:0.63
G1 F1200
G1 X155.791 Y150.624 E.01112
G1 X155.964 Y150.804 E.01765
G1 X156.201 Y150.933 E.01904
G1 X156.483 Y150.981 E.02012
G1 X203.517 Y150.981 E3.31815
G1 X203.664 Y150.968 E.01038
G1 X204.036 Y150.804 E.02867
G1 X204.209 Y150.624 E.01763
G1 X204.333 Y150.368 E.02005
G1 X204.753 Y149.641 E.05925
G1 X205.314 Y149.017 E.0592
G1 X205.993 Y148.524 E.0592
G1 X206.76 Y148.182 E.0592
G1 X207.58 Y148.008 E.0592
G1 X208.42 Y148.008 E.05919
G1 X209.24 Y148.182 E.0592
G1 X210.007 Y148.524 E.0592
G1 X210.686 Y149.017 E.0592
G1 X211.247 Y149.641 E.0592
G1 X211.667 Y150.367 E.0592
G1 X211.926 Y151.165 E.0592
G1 X212.014 Y152 E.0592
G1 X211.926 Y152.835 E.0592
G1 X211.667 Y153.633 E.0592
G1 X211.247 Y154.359 E.0592
G1 X210.686 Y154.983 E.0592
G1 X210.007 Y155.476 E.0592
G1 X209.37 Y155.78 E.04977
G1 X209.193 Y155.953 E.01746
G1 X209.066 Y156.188 E.01888
G1 X209.019 Y156.467 E.01993
G1 X209.019 Y203.533 E3.32039
G1 X209.032 Y203.68 E.01038
G1 X209.193 Y204.047 E.02832
G1 X209.37 Y204.22 E.01746
G1 X209.523 Y204.308 E.01242
G1 X210.007 Y204.524 E.0374
G1 X210.686 Y205.017 E.0592
G1 X211.247 Y205.641 E.0592
G1 X211.667 Y206.367 E.0592
G1 X211.926 Y207.165 E.0592
G1 X212.014 Y208 E.0592
G1 X211.926 Y208.835 E.0592
G1 X211.667 Y209.633 E.0592
G1 X211.247 Y210.359 E.0592
G1 X210.686 Y210.983 E.0592
G1 X210.007 Y211.476 E.0592
G1 X209.24 Y211.818 E.0592
G1 X208.42 Y211.992 E.0592
G1 X207.58 Y211.992 E.0592
G1 X206.76 Y211.818 E.0592
G1 X205.993 Y211.476 E.0592
G1 X205.314 Y210.983 E.0592
G1 X204.753 Y210.359 E.0592
G1 X204.209 Y209.376 E.07926
G1 X204.036 Y209.196 E.01763
G1 X203.798 Y209.067 E.01904
G1 X203.517 Y209.019 E.02012
G1 X156.483 Y209.019 E3.31815
G1 X156.336 Y209.032 E.01038
G1 X155.964 Y209.196 E.02866
G1 X155.791 Y209.377 E.01765
G1 X155.667 Y209.633 E.02008
G1 X155.247 Y210.359 E.05919
G1 X154.686 Y210.983 E.0592
G1 X154.007 Y211.476 E.0592
G1 X153.24 Y211.818 E.0592
G1 X152.42 Y211.992 E.0592
G1 X151.58 Y211.992 E.0592
G1 X150.76 Y211.818 E.0592
G1 X149.993 Y211.476 E.0592
G1 X149.314 Y210.983 E.0592
G1 X148.753 Y210.359 E.0592
G1 X148.333 Y209.633 E.0592
G1 X148.074 Y208.835 E.0592
G1 X147.986 Y208 E.0592
G1 X148.074 Y207.165 E.0592
G1 X148.333 Y206.367 E.0592
G1 X148.753 Y205.641 E.0592
G1 X149.314 Y205.017 E.0592
G1 X149.993 Y204.524 E.0592
G1 X150.63 Y204.22 E.04977
G1 X150.807 Y204.047 E.01746
G1 X150.934 Y203.812 E.01888
G1 X150.981 Y203.533 E.01993
G1 X150.981 Y156.467 E3.32039
G1 X150.934 Y156.188 E.01993
G1 X150.807 Y155.953 E.01888
G1 X150.63 Y155.78 E.01746
G1 X150.477 Y155.692 E.01242
G1 X149.993 Y155.476 E.0374
G1 X149.314 Y154.983 E.0592
G1 X148.753 Y154.359 E.0592
G1 X148.333 Y153.633 E.0592
G1 X148.074 Y152.835 E.0592
G1 X147.986 Y152 E.0592
G1 X148.074 Y151.165 E.0592
G1 X148.333 Y150.367 E.0592
G1 X148.753 Y149.641 E.0592
G1 X149.314 Y149.017 E.0592
G1 X149.993 Y148.524 E.0592
G1 X150.76 Y148.182 E.0592
G1 X151.58 Y148.008 E.0592
G1 X152.42 Y148.008 E.0592
G1 X153.24 Y148.182 E.0592
G1 X154.007 Y148.524 E.0592
G1 X154.686 Y149.017 E.0592
G1 X155.247 Y149.641 E.0592
G1 X155.676 Y150.404 E.06177
G1 X156.214 Y150.22 F9000
;TYPE:External perimeter
G1 F1200
G1 X156.31 Y150.356 E.01178
G1 X156.483 Y150.415 E.01288
G1 X203.517 Y150.415 E3.31815
G1 X203.566 Y150.411 E.00346
G1 X203.748 Y150.296 E.01516
G1 X203.813 Y150.136 E.01218
G1 X204.292 Y149.306 E.06761
G1 X204.934 Y148.594 E.06759
G1 X205.709 Y148.031 E.06759
G1 X206.584 Y147.642 E.06759
G1 X207.521 Y147.442 E.06759
G1 X208.479 Y147.442 E.06758
G1 X209.416 Y147.642 E.06759
G1 X210.291 Y148.031 E.06759
G1 X211.066 Y148.594 E.06759
G1 X211.708 Y149.306 E.06759
G1 X212.186 Y150.136 E.06759
G1 X212.483 Y151.047 E.06759
G1 X212.583 Y152 E.06759
G1 X212.483 Y152.953 E.06759
G1 X212.186 Y153.864 E.06759
G1 X211.708 Y154.694 E.06759
G1 X211.066 Y155.406 E.06758
G1 X210.291 Y155.969 E.06759
G1 X209.942 Y156.124 E.02696
G1 X209.643 Y156.295 E.02433
G1 X209.585 Y156.467 E.01277
G1 X209.585 Y203.533 E3.32039
G1 X209.643 Y203.705 E.01277
G1 X209.753 Y203.792 E.00988
G1 X210.291 Y204.031 E.04159
G1 X211.066 Y204.594 E.06759
G1 X211.708 Y205.306 E.06759
G1 X212.186 Y206.136 E.06758
G1 X212.483 Y207.047 E.06759
G1 X212.583 Y208 E.06759
G1 X212.483 Y208.953 E.06759
G1 X212.186 Y209.864 E.06759
G1 X211.708 Y210.694 E.06758
G1 X211.066 Y211.406 E.06759
G1 X210.291 Y211.969 E.06759
G1 X209.416 Y212.358 E.06759
G1 X208.479 Y212.558 E.06759
G1 X207.521 Y212.558 E.06758
G1 X206.584 Y212.358 E.06759
G1 X205.709 Y211.969 E.06759
G1 X204.934 Y211.406 E.06759
G1 X204.292 Y210.694 E.06759
G1 X203.786 Y209.78 E.07369
G1 X203.69 Y209.644 E.01175
G1 X203.517 Y209.585 E.01288
G1 X156.483 Y209.585 E3.31815
G1 X156.434 Y209.589 E.00346
G1 X156.252 Y209.704 E.01516
G1 X156.187 Y209.864 E.01219
G1 X155.707 Y210.694 E.06758
G1 X155.066 Y211.406 E.06759
G1 X154.291 Y211.969 E.06759
G1 X153.416 Y212.358 E.06759
G1 X152.479 Y212.558 E.06759
G1 X151.521 Y212.558 E.06759
G1 X150.584 Y212.358 E.06759
G1 X149.709 Y211.969 E.06759
G1 X148.934 Y211.406 E.06759
G1 X148.293 Y210.694 E.06759
G1 X147.813 Y209.864 E.06759
G1 X147.517 Y208.953 E.06758
G1 X147.417 Y208 E.06759
G1 X147.517 Y207.047 E.06759
G1 X147.813 Y206.136 E.06758
G1 X148.293 Y205.306 E.06759
G1 X148.934 Y204.594 E.06759
G1 X149.709 Y204.031 E.06759
G1 X150.058 Y203.876 E.02697
G1 X150.357 Y203.705 E.02432
G1 X150.415 Y203.533 E.01277
G1 X150.415 Y156.467 E3.32039
G1 X150.357 Y156.295 E.01277
G1 X150.247 Y156.209 E.00988
G1 X149.709 Y155.969 E.04159
G1 X148.934 Y155.406 E.06759
G1 X148.293 Y154.694 E.06759
G1 X147.813 Y153.864 E.06759
G1 X147.517 Y152.953 E.06759
G1 X147.417 Y152 E.06759
G1 X147.517 Y151.047 E.06759
G1 X147.813 Y150.136 E.06759
G1 X148.293 Y149.306 E.06759
G1 X148.934 Y148.594 E.06759
G1 X149.709 Y148.031 E.06759
G1 X150.584 Y147.642 E.06759
G1 X151.521 Y147.442 E.06759
G1 X152.479 Y147.442 E.06759
G1 X153.416 Y147.642 E.06759
G1 X154.291 Y148.031 E.06759
G1 X155.066 Y148.594 E.06759
G1 X155.707 Y149.306 E.06759
G1 X156.171 Y150.14 E.06731
G1 X156.144 Y150.371 F9000
G1 E-2.8 F2400
;WIPE_START
G1 F7200
G1 X156.31 Y150.356 E-.08126
G1 X156.483 Y150.415 E-.05781
G1 X159.643 Y150.415 E-1.00094
;WIPE_END
G1 E-.06 F2400
G1 X154.663 Y154.05 F9000
G1 E4 F2400
;TYPE:Perimeter
G1 F1200
G1 X154.868 Y154.019 E.01463
G1 X178.19 Y154.019 E1.64529
G1 X178.346 Y153.699 E.02519
G1 X178.721 Y153.532 E.02893
G1 X181.132 Y153.519 E.17009
G1 X181.415 Y153.568 E.02027
G1 X181.654 Y153.699 E.01917
G1 X181.81 Y154.019 E.02519
G1 X205.132 Y154.019 E1.64529
G1 X205.379 Y154.056 E.01763
G1 X205.693 Y154.232 E.02537
G1 X205.877 Y154.461 E.02069
G1 X205.945 Y154.623 E.01242
G1 X205.981 Y154.868 E.01746
G1 X205.981 Y178.19 E1.64529
G1 X206.301 Y178.346 E.02519
G1 X206.432 Y178.585 E.01917
G1 X206.481 Y178.868 E.02027
G1 X206.481 Y181.132 E.15975
G1 X206.432 Y181.415 E.02027
G1 X206.301 Y181.654 E.01917
G1 X205.981 Y181.81 E.02519
G1 X205.981 Y205.132 E1.64529
G1 X205.945 Y205.377 E.01746
G1 X205.763 Y205.7 E.02614
G1 X205.542 Y205.875 E.01987
G1 X205.379 Y205.944 E.01246
G1 X205.132 Y205.981 E.01763
G1 X181.81 Y205.981 E1.64529
G1 X181.654 Y206.301 E.02519
G1 X181.279 Y206.468 E.02893
G1 X181.132 Y206.481 E.01038
G1 X178.868 Y206.481 E.15975
G1 X178.585 Y206.432 E.02027
G1 X178.346 Y206.301 E.01917
G1 X178.19 Y205.981 E.02519
G1 X154.868 Y205.981 E1.64529
G1 X154.62 Y205.944 E.01765
G1 X154.307 Y205.768 E.02535
G1 X154.124 Y205.539 E.02069
G1 X154.055 Y205.377 E.01242
G1 X154.019 Y205.132 E.01746
G1 X154.019 Y177.81 E1.92747
G1 X153.699 Y177.654 E.02519
G1 X153.532 Y177.279 E.02893
G1 X153.519 Y174.868 E.17009
G1 X153.568 Y174.585 E.02027
G1 X153.699 Y174.346 E.01917
G1 X154.019 Y174.19 E.02519
G1 X154.019 Y154.868 E1.3631
G1 X154.055 Y154.623 E.01746
G1 X154.237 Y154.3 E.02614
G1 X154.458 Y154.125 E.01985
G1 X154.577 Y154.075 E.00914
G1 X154.785 Y154.597 F9000
;TYPE:External perimeter
G1 F1200
G1 X178.585 Y154.585 E1.679
G1 X178.585 Y154.368 E.01532
G1 X178.694 Y154.145 E.01752
G1 X178.868 Y154.085 E.01297
G1 X181.132 Y154.085 E.15975
G1 X181.306 Y154.145 E.01297
G1 X181.415 Y154.368 E.01752
G1 X181.415 Y154.585 E.01532
G1 X205.132 Y154.585 E1.67318
G1 X205.324 Y154.66 E.01448
G1 X205.403 Y154.786 E.01055
G1 X205.415 Y155.667 E.06217
G1 X205.415 Y178.585 E1.61677
G1 X205.632 Y178.585 E.01532
G1 X205.855 Y178.694 E.01752
G1 X205.915 Y178.868 E.01297
G1 X205.915 Y181.132 E.15975
G1 X205.855 Y181.306 E.01297
G1 X205.632 Y181.415 E.01752
G1 X205.415 Y181.415 E.01532
G1 X205.415 Y205.132 E1.67318
G1 X205.339 Y205.326 E.01466
G1 X205.215 Y205.403 E.01031
G1 X204.325 Y205.415 E.06279
G1 X181.415 Y205.415 E1.61621
G1 X181.415 Y205.632 E.01532
G1 X181.306 Y205.855 E.01752
G1 X181.132 Y205.915 E.01297
G1 X178.868 Y205.915 E.15975
G1 X178.694 Y205.855 E.01297
G1 X178.585 Y205.632 E.01752
G1 X178.585 Y205.415 E.01532
G1 X154.868 Y205.415 E1.67318
G1 X154.673 Y205.337 E.01484
G1 X154.597 Y205.214 E.01018
G1 X154.585 Y204.333 E.06217
G1 X154.585 Y177.415 E1.89896
G1 X154.368 Y177.415 E.01532
G1 X154.145 Y177.306 E.01752
G1 X154.085 Y177.132 E.01297
G1 X154.085 Y174.868 E.15975
G1 X154.101 Y174.773 E.00676
G1 X154.145 Y174.694 E.00639
G1 X154.368 Y174.585 E.01752
G1 X154.585 Y174.585 E.01532
G1 X154.585 Y154.868 E1.39099
G1 X154.661 Y154.675 E.01466
G1 X154.709 Y154.645 E.00395
G1 X154.912 Y154.011 F9000
G1 E-2.8 F2400
;WIPE_START
G1 F7200
G1 X158.309 Y154.636 E-1.14
;WIPE_END
G1 E-.06 F2400
G1 X211.505 Y150.455 F9000
G1 E4 F2400
;TYPE:Solid infill
;WIDTH:0.632395
G1 F1200
G1 X210.392 Y149.342 E.11146
G1 X209.788 Y148.903 E.05293
G1 X209.105 Y148.599 E.05296
G1 X208.776 Y148.529 E.02383
G1 X211.495 Y151.248 E.27243
G1 X211.576 Y152 E.05357
G1 X211.563 Y152.12 E.00853
G1 X207.887 Y148.444 E.36832
G1 X207.626 Y148.444 E.01849
G1 X207.179 Y148.539 E.03239
G1 X211.47 Y152.83 E.42991
G1 X211.273 Y153.436 E.04516
G1 X206.577 Y148.74 E.47045
G1 X206.212 Y148.903 E.02834
G1 X206.053 Y149.019 E.01395
G1 X210.982 Y153.948 E.49387
G1 X210.893 Y154.102 E.01259
G1 X210.628 Y154.397 E.02812
G1 X205.591 Y149.36 E.50462
G1 X205.21 Y149.783 E.0403
G1 X210.214 Y154.787 E.50136
G1 X209.742 Y155.118 E.04087
G1 X204.893 Y150.269 E.4858
G1 X204.727 Y150.557 E.02354
G1 X204.61 Y150.789 E.01843
G1 X209.198 Y155.378 E.45976
G1 X209.111 Y155.428 E.00712
G1 X208.845 Y155.688 E.0264
G1 X208.796 Y155.779 E.00728
G1 X204.215 Y151.198 E.45897
G1 X203.949 Y151.343 E.02149
G1 X203.739 Y151.397 E.01537
G1 X203.622 Y151.408 E.00832
G1 X208.596 Y156.382 E.49838
G1 X208.584 Y157.173 E.05605
G1 X206.416 Y155.005 E.21719
G1 X206.416 Y154.857 E.01054
G1 X206.364 Y154.5 E.02553
G1 X206.258 Y154.248 E.01934
G1 X206.037 Y153.955 E.02601
G1 X205.755 Y153.744 E.02496
G1 X205.503 Y153.637 E.01938
G1 X205.143 Y153.584 E.02578
G1 X204.995 Y153.584 E.01054
G1 X202.827 Y151.416 E.21719
G1 X202.024 Y151.416 E.05691
G1 X204.191 Y153.584 E.21719
G1 X203.388 Y153.584 E.05691
G1 X201.22 Y151.416 E.21719
G1 X200.417 Y151.416 E.05691
G1 X202.585 Y153.584 E.21719
G1 X201.781 Y153.584 E.05691
G1 X199.614 Y151.416 E.21719
G1 X198.81 Y151.416 E.05691
G1 X200.978 Y153.584 E.21719
G1 X200.175 Y153.584 E.05691
G1 X198.007 Y151.416 E.21719
G1 X197.204 Y151.416 E.05691
G1 X199.372 Y153.584 E.21719
G1 X198.568 Y153.584 E.05691
G1 X196.401 Y151.416 E.21719
G1 X195.597 Y151.416 E.05691
G1 X197.765 Y153.584 E.21719
G1 X196.962 Y153.584 E.05691
G1 X194.794 Y151.416 E.21719
G1 X193.991 Y151.416 E.05691
G1 X196.158 Y153.584 E.21719
G1 X195.355 Y153.584 E.05691
G1 X193.187 Y151.416 E.21719
G1 X192.384 Y151.416 E.05691
G1 X194.552 Y153.584 E.21719
G1 X193.749 Y153.584 E.05691
G1 X191.581 Y151.416 E.21719
G1 X190.778 Y151.416 E.05691
G1 X192.945 Y153.584 E.21719
G1 X192.142 Y153.584 E.05691
G1 X189.974 Y151.416 E.21719
G1 X189.171 Y151.416 E.05691
G1 X191.339 Y153.584 E.21719
G1 X190.535 Y153.584 E.05691
G1 X188.368 Y151.416 E.21719
G1 X187.564 Y151.416 E.05691
G1 X189.732 Y153.584 E.21719
G1 X188.929 Y153.584 E.05691
G1 X186.761 Y151.416 E.21719
G1 X185.958 Y151.416 E.05691
G1 X188.126 Y153.584 E.21719
G1 X187.322 Y153.584 E.05691
G1 X185.154 Y151.416 E.21719
G1 X184.351 Y151.416 E.05691
G1 X186.519 Y153.584 E.21719
G1 X185.716 Y153.584 E.05691
G1 X183.548 Y151.416 E.21719
G1 X182.745 Y151.416 E.05691
G1 X184.912 Y153.584 E.21719
G1 X184.109 Y153.584 E.05691
G1 X181.941 Y151.416 E.21719
G1 X181.138 Y151.416 E.05691
G1 X183.306 Y153.584 E.21719
G1 X182.502 Y153.584 E.05691
G1 X180.335 Y151.416 E.21719
G1 X179.531 Y151.416 E.05691
G1 X181.21 Y153.095 E.16821
G1 X180.396 Y153.084 E.05771
G1 X178.728 Y151.416 E.16709
G1 X177.925 Y151.416 E.05691
G1 X179.593 Y153.084 E.16709
G1 X178.795 Y153.09 E.0565
G1 X177.122 Y151.416 E.16767
G1 X176.318 Y151.416 E.05691
G1 X178.193 Y153.29 E.18778
G1 X178.057 Y153.365 E.01098
G1 X177.95 Y153.584 E.01727
G1 X177.683 Y153.584 E.01891
G1 X175.515 Y151.416 E.21719
G1 X174.712 Y151.416 E.05691
G1 X176.879 Y153.584 E.21719
G1 X176.076 Y153.584 E.05691
G1 X173.908 Y151.416 E.21719
G1 X173.105 Y151.416 E.05691
G1 X175.273 Y153.584 E.21719
G1 X174.47 Y153.584 E.05691
G1 X172.302 Y151.416 E.21719
G1 X171.498 Y151.416 E.05691
G1 X173.666 Y153.584 E.21719
G1 X172.863 Y153.584 E.05691
G1 X170.695 Y151.416 E.21719
G1 X169.892 Y151.416 E.05691
G1 X172.06 Y153.584 E.21719
G1 X171.256 Y153.584 E.05691
G1 X169.089 Y151.416 E.21719
